assets/lut/bw_red.cube
#Created by www.Photopea.com
TITLE "Screenshot from 2026-03-19 16-21-12.png"
#LUT size
LUT_3D_SIZE 33
#data domain
DOMAIN_MIN 0.0 0.0 0.0
DOMAIN_MAX 1.0 1.0 1.0
#LUT data points
0.000000 0.000000 0.000000
0.031373 0.000000 0.000000
0.062745 0.000000 0.000000
0.094118 0.000000 0.000000
0.125490 0.000000 0.000000
0.156863 0.000000 0.000000
0.188235 0.000000 0.000000
0.219608 0.000000 0.000000
0.250980 0.000000 0.000000
0.282353 0.000000 0.000000
0.313725 0.000000 0.000000
0.345098 0.000000 0.000000
0.376471 0.000000 0.000000
0.407843 0.000000 0.000000
0.439216 0.000000 0.000000
0.470588 0.000000 0.000000
0.501961 0.000000 0.000000
0.529412 0.000000 0.000000
0.560784 0.000000 0.000000
0.592157 0.000000 0.000000
0.623529 0.000000 0.000000
0.654902 0.000000 0.000000
0.686275 0.000000 0.000000
0.717647 0.000000 0.000000
0.749020 0.000000 0.000000
0.780392 0.000000 0.000000
0.811765 0.000000 0.000000
0.843137 0.000000 0.000000
0.874510 0.000000 0.000000
0.905882 0.000000 0.000000
0.937255 0.000000 0.000000
0.968627 0.000000 0.000000
1.000000 0.000000 0.000000
0.015686 0.015686 0.015686
0.015686 0.015686 0.015686
0.047059 0.031373 0.015686
0.086275 0.035294 0.007843
0.125490 0.031373 0.000000
0.156863 0.031373 0.000000
0.188235 0.031373 0.000000
0.219608 0.031373 0.000000
0.250980 0.031373 0.000000
0.282353 0.031373 0.000000
0.313725 0.031373 0.000000
0.345098 0.031373 0.000000
0.376471 0.031373 0.000000
0.407843 0.031373 0.000000
0.439216 0.031373 0.000000
0.470588 0.031373 0.000000
0.501961 0.031373 0.000000
0.529412 0.031373 0.000000
0.560784 0.031373 0.000000
0.592157 0.031373 0.000000
0.623529 0.031373 0.000000
0.654902 0.031373 0.000000
0.686275 0.031373 0.000000
0.717647 0.031373 0.000000
0.749020 0.031373 0.000000
0.780392 0.027451 0.000000
0.811765 0.027451 0.000000
0.843137 0.027451 0.000000
0.874510 0.027451 0.000000
0.905882 0.027451 0.000000
0.937255 0.027451 0.000000
0.968627 0.027451 0.000000
1.000000 0.027451 0.000000
0.031373 0.031373 0.031373
0.031373 0.031373 0.031373
0.031373 0.031373 0.031373
0.054902 0.050980 0.039216
0.094118 0.062745 0.031373
0.133333 0.066667 0.023529
0.172549 0.066667 0.015686
0.211765 0.066667 0.007843
0.250980 0.062745 0.000000
0.282353 0.062745 0.000000
0.313725 0.062745 0.000000
0.345098 0.062745 0.000000
0.376471 0.062745 0.000000
0.407843 0.062745 0.000000
0.439216 0.062745 0.000000
0.470588 0.062745 0.000000
0.501961 0.062745 0.000000
0.529412 0.062745 0.000000
0.560784 0.062745 0.000000
0.592157 0.062745 0.000000
0.623529 0.062745 0.000000
0.654902 0.062745 0.000000
0.686275 0.062745 0.000000
0.717647 0.062745 0.000000
0.749020 0.062745 0.000000
0.780392 0.062745 0.000000
0.811765 0.062745 0.000000
0.843137 0.058824 0.000000
0.874510 0.058824 0.000000
0.905882 0.058824 0.000000
0.937255 0.058824 0.000000
0.968627 0.058824 0.000000
1.000000 0.058824 0.000000
0.047059 0.047059 0.047059
0.047059 0.047059 0.047059
0.047059 0.047059 0.047059
0.047059 0.047059 0.047059
0.062745 0.062745 0.062745
0.101961 0.082353 0.054902
0.141176 0.094118 0.047059
0.180392 0.098039 0.039216
0.219608 0.101961 0.031373
0.258824 0.101961 0.023529
0.301961 0.098039 0.011765
0.341176 0.094118 0.003922
0.376471 0.094118 0.000000
0.407843 0.094118 0.000000
0.439216 0.094118 0.000000
0.470588 0.094118 0.000000
0.501961 0.094118 0.000000
0.529412 0.094118 0.000000
0.560784 0.094118 0.000000
0.592157 0.094118 0.000000
0.623529 0.094118 0.000000
0.654902 0.094118 0.000000
0.686275 0.094118 0.000000
0.717647 0.094118 0.000000
0.749020 0.094118 0.000000
0.780392 0.094118 0.000000
0.811765 0.094118 0.000000
0.843137 0.094118 0.000000
0.874510 0.090196 0.000000
0.905882 0.090196 0.000000
0.937255 0.090196 0.000000
0.968627 0.090196 0.000000
1.000000 0.090196 0.000000
0.062745 0.062745 0.062745
0.062745 0.062745 0.062745
0.062745 0.062745 0.062745
0.062745 0.062745 0.062745
0.062745 0.062745 0.062745
0.078431 0.078431 0.078431
0.109804 0.098039 0.078431
0.149020 0.113725 0.070588
0.188235 0.125490 0.062745
0.227451 0.129412 0.054902
0.266667 0.133333 0.047059
0.305882 0.133333 0.039216
0.349020 0.133333 0.027451
0.388235 0.133333 0.019608
0.427451 0.129412 0.011765
0.466667 0.125490 0.003922
0.501961 0.125490 0.000000
0.529412 0.125490 0.000000
0.560784 0.125490 0.000000
0.592157 0.125490 0.000000
0.623529 0.125490 0.000000
0.654902 0.125490 0.000000
0.686275 0.125490 0.000000
0.717647 0.125490 0.000000
0.749020 0.125490 0.000000
0.780392 0.125490 0.000000
0.811765 0.125490 0.000000
0.843137 0.125490 0.000000
0.874510 0.125490 0.000000
0.905882 0.121569 0.000000
0.937255 0.121569 0.000000
0.968627 0.121569 0.000000
1.000000 0.121569 0.000000
0.078431 0.078431 0.078431
0.078431 0.078431 0.078431
0.078431 0.078431 0.078431
0.078431 0.078431 0.078431
0.078431 0.078431 0.078431
0.078431 0.078431 0.078431
0.094118 0.094118 0.094118
0.117647 0.113725 0.101961
0.156863 0.133333 0.094118
0.196078 0.149020 0.086275
0.235294 0.156863 0.078431
0.274510 0.164706 0.070588
0.313725 0.168627 0.062745
0.356863 0.168627 0.050980
0.396078 0.168627 0.043137
0.435294 0.168627 0.035294
0.474510 0.168627 0.027451
0.509804 0.164706 0.019608
0.549020 0.160784 0.011765
0.588235 0.156863 0.003922
0.623529 0.156863 0.000000
0.654902 0.156863 0.000000
0.686275 0.156863 0.000000
0.717647 0.156863 0.000000
0.749020 0.156863 0.000000
0.780392 0.156863 0.000000
0.811765 0.156863 0.000000
0.843137 0.156863 0.000000
0.874510 0.156863 0.000000
0.905882 0.156863 0.000000
0.937255 0.152941 0.000000
0.968627 0.152941 0.000000
1.000000 0.152941 0.000000
0.094118 0.094118 0.094118
0.094118 0.094118 0.094118
0.094118 0.094118 0.094118
0.094118 0.094118 0.094118
0.094118 0.094118 0.094118
0.094118 0.094118 0.094118
0.094118 0.094118 0.094118
0.109804 0.109804 0.109804
0.125490 0.125490 0.125490
0.164706 0.149020 0.117647
0.203922 0.164706 0.109804
0.243137 0.180392 0.101961
0.282353 0.188235 0.094118
0.321569 0.196078 0.086275
0.364706 0.200000 0.074510
0.403922 0.200000 0.066667
0.443137 0.203922 0.058824
0.478431 0.203922 0.050980
0.517647 0.203922 0.043137
0.556863 0.200000 0.035294
0.596078 0.200000 0.027451
0.635294 0.196078 0.019608
0.674510 0.192157 0.011765
0.713725 0.188235 0.003922
0.749020 0.188235 0.000000
0.780392 0.188235 0.000000
0.811765 0.188235 0.000000
0.843137 0.188235 0.000000
0.874510 0.188235 0.000000
0.905882 0.188235 0.000000
0.937255 0.188235 0.000000
0.968627 0.188235 0.000000
1.000000 0.184314 0.000000
0.109804 0.109804 0.109804
0.109804 0.109804 0.109804
0.109804 0.109804 0.109804
0.109804 0.109804 0.109804
0.109804 0.109804 0.109804
0.109804 0.109804 0.109804
0.109804 0.109804 0.109804
0.109804 0.109804 0.109804
0.125490 0.125490 0.125490
0.141176 0.141176 0.141176
0.172549 0.164706 0.141176
0.211765 0.184314 0.133333
0.250980 0.200000 0.125490
0.290196 0.211765 0.117647
0.329412 0.219608 0.109804
0.368627 0.227451 0.101961
0.411765 0.231373 0.090196
0.443137 0.235294 0.086275
0.482353 0.235294 0.078431
0.525490 0.235294 0.066667
0.564706 0.235294 0.058824
0.603922 0.235294 0.050980
0.643137 0.235294 0.043137
0.682353 0.231373 0.035294
0.721569 0.231373 0.027451
0.760784 0.227451 0.019608
0.800000 0.223529 0.011765
0.839216 0.219608 0.003922
0.874510 0.219608 0.000000
0.905882 0.219608 0.000000
0.937255 0.219608 0.000000
0.968627 0.219608 0.000000
1.000000 0.219608 0.000000
0.125490 0.125490 0.125490
0.125490 0.125490 0.125490
0.125490 0.125490 0.125490
0.125490 0.125490 0.125490
0.125490 0.125490 0.125490
0.125490 0.125490 0.125490
0.125490 0.125490 0.125490
0.125490 0.125490 0.125490
0.125490 0.125490 0.125490
0.141176 0.141176 0.141176
0.156863 0.156863 0.156863
0.180392 0.176471 0.164706
0.219608 0.200000 0.156863
0.258824 0.215686 0.149020
0.298039 0.231373 0.141176
0.337255 0.243137 0.133333
0.376471 0.250980 0.125490
0.411765 0.254902 0.117647
0.450980 0.262745 0.109804
0.490196 0.266667 0.101961
0.533333 0.266667 0.090196
0.572549 0.270588 0.082353
0.611765 0.270588 0.074510
0.650980 0.270588 0.066667
0.690196 0.270588 0.058824
0.729412 0.266667 0.050980
0.768627 0.266667 0.043137
0.807843 0.262745 0.035294
0.847059 0.262745 0.027451
0.886275 0.258824 0.019608
0.925490 0.254902 0.011765
0.964706 0.250980 0.003922
1.000000 0.250980 0.000000
0.141176 0.141176 0.141176
0.141176 0.141176 0.141176
0.141176 0.141176 0.141176
0.141176 0.141176 0.141176
0.141176 0.141176 0.141176
0.141176 0.141176 0.141176
0.141176 0.141176 0.141176
0.141176 0.141176 0.141176
0.141176 0.141176 0.141176
0.141176 0.141176 0.141176
0.156863 0.156863 0.156863
0.172549 0.172549 0.172549
0.188235 0.188235 0.188235
0.227451 0.211765 0.180392
0.266667 0.231373 0.172549
0.305882 0.250980 0.164706
0.345098 0.262745 0.156863
0.380392 0.270588 0.149020
0.419608 0.282353 0.141176
0.458824 0.286275 0.133333
0.498039 0.294118 0.125490
0.541176 0.298039 0.113725
0.580392 0.301961 0.105882
0.619608 0.301961 0.098039
0.658824 0.305882 0.090196
0.698039 0.305882 0.082353
0.737255 0.305882 0.074510
0.776471 0.301961 0.066667
0.815686 0.301961 0.058824
0.854902 0.301961 0.050980
0.894118 0.298039 0.043137
0.933333 0.294118 0.035294
0.976471 0.290196 0.023529
0.156863 0.156863 0.156863
0.156863 0.156863 0.156863
0.156863 0.156863 0.156863
0.156863 0.156863 0.156863
0.156863 0.156863 0.156863
0.156863 0.156863 0.156863
0.156863 0.156863 0.156863
0.156863 0.156863 0.156863
0.156863 0.156863 0.156863
0.156863 0.156863 0.156863
0.156863 0.156863 0.156863
0.172549 0.172549 0.172549
0.188235 0.188235 0.188235
0.203922 0.203922 0.203922
0.235294 0.227451 0.203922
0.274510 0.247059 0.196078
0.313725 0.266667 0.188235
0.349020 0.278431 0.180392
0.388235 0.294118 0.172549
0.427451 0.301961 0.164706
0.466667 0.313725 0.156863
0.505882 0.317647 0.149020
0.545098 0.325490 0.141176
0.588235 0.329412 0.129412
0.627451 0.333333 0.121569
0.666667 0.337255 0.113725
0.705882 0.337255 0.105882
0.745098 0.337255 0.098039
0.784314 0.337255 0.090196
0.823529 0.337255 0.082353
0.862745 0.337255 0.074510
0.901961 0.337255 0.066667
0.941176 0.333333 0.058824
0.172549 0.172549 0.172549
0.172549 0.172549 0.172549
0.172549 0.172549 0.172549
0.172549 0.172549 0.172549
0.172549 0.172549 0.172549
0.172549 0.172549 0.172549
0.172549 0.172549 0.172549
0.172549 0.172549 0.172549
0.172549 0.172549 0.172549
0.172549 0.172549 0.172549
0.172549 0.172549 0.172549
0.172549 0.172549 0.172549
0.188235 0.188235 0.188235
0.203922 0.203922 0.203922
0.219608 0.219608 0.219608
0.243137 0.239216 0.227451
0.282353 0.262745 0.219608
0.317647 0.282353 0.211765
0.356863 0.298039 0.203922
0.396078 0.313725 0.196078
0.435294 0.325490 0.188235
0.474510 0.333333 0.180392
0.513725 0.345098 0.172549
0.552941 0.352941 0.164706
0.596078 0.356863 0.152941
0.635294 0.360784 0.145098
0.674510 0.364706 0.137255
0.713725 0.368627 0.129412
0.752941 0.368627 0.121569
0.792157 0.372549 0.113725
0.831373 0.372549 0.105882
0.870588 0.372549 0.098039
0.909804 0.372549 0.090196
0.188235 0.188235 0.188235
0.188235 0.188235 0.188235
0.188235 0.188235 0.188235
0.188235 0.188235 0.188235
0.188235 0.188235 0.188235
0.188235 0.188235 0.188235
0.188235 0.188235 0.188235
0.188235 0.188235 0.188235
0.188235 0.188235 0.188235
0.188235 0.188235 0.188235
0.188235 0.188235 0.188235
0.188235 0.188235 0.188235
0.188235 0.188235 0.188235
0.203922 0.203922 0.203922
0.219608 0.219608 0.219608
0.235294 0.235294 0.235294
0.250980 0.250980 0.250980
0.286275 0.274510 0.243137
0.325490 0.294118 0.235294
0.364706 0.313725 0.227451
0.403922 0.329412 0.219608
0.443137 0.345098 0.211765
0.482353 0.356863 0.203922
0.521569 0.364706 0.196078
0.560784 0.376471 0.188235
0.600000 0.384314 0.176471
0.643137 0.388235 0.168627
0.682353 0.392157 0.160784
0.721569 0.396078 0.152941
0.760784 0.400000 0.145098
0.800000 0.403922 0.137255
0.839216 0.403922 0.129412
0.878431 0.403922 0.121569
0.203922 0.203922 0.203922
0.203922 0.203922 0.203922
0.203922 0.203922 0.203922
0.203922 0.203922 0.203922
0.203922 0.203922 0.203922
0.203922 0.203922 0.203922
0.203922 0.203922 0.203922
0.203922 0.203922 0.203922
0.203922 0.203922 0.203922
0.203922 0.203922 0.203922
0.203922 0.203922 0.203922
0.203922 0.203922 0.203922
0.203922 0.203922 0.203922
0.203922 0.203922 0.203922
0.219608 0.219608 0.219608
0.235294 0.235294 0.235294
0.250980 0.250980 0.250980
0.262745 0.262745 0.262745
0.294118 0.286275 0.266667
0.333333 0.309804 0.258824
0.372549 0.329412 0.250980
0.411765 0.349020 0.243137
0.450980 0.364706 0.235294
0.490196 0.376471 0.227451
0.529412 0.388235 0.219608
0.568627 0.400000 0.211765
0.607843 0.407843 0.203922
0.650980 0.415686 0.192157
0.690196 0.419608 0.184314
0.729412 0.423529 0.176471
0.768627 0.427451 0.168627
0.807843 0.431373 0.160784
0.847059 0.435294 0.152941
0.219608 0.219608 0.219608
0.219608 0.219608 0.219608
0.219608 0.219608 0.219608
0.219608 0.219608 0.219608
0.219608 0.219608 0.219608
0.219608 0.219608 0.219608
0.219608 0.219608 0.219608
0.219608 0.219608 0.219608
0.219608 0.219608 0.219608
0.219608 0.219608 0.219608
0.219608 0.219608 0.219608
0.219608 0.219608 0.219608
0.219608 0.219608 0.219608
0.219608 0.219608 0.219608
0.219608 0.219608 0.219608
0.235294 0.235294 0.235294
0.250980 0.250980 0.250980
0.262745 0.262745 0.262745
0.278431 0.278431 0.278431
0.301961 0.298039 0.290196
0.341176 0.321569 0.282353
0.380392 0.345098 0.274510
0.419608 0.364706 0.266667
0.458824 0.380392 0.258824
0.498039 0.396078 0.250980
0.537255 0.407843 0.243137
0.576471 0.419608 0.235294
0.615686 0.431373 0.227451
0.658824 0.439216 0.215686
0.698039 0.447059 0.207843
0.737255 0.450980 0.200000
0.776471 0.454902 0.192157
0.815686 0.462745 0.184314
0.235294 0.235294 0.235294
0.235294 0.235294 0.235294
0.235294 0.235294 0.235294
0.235294 0.235294 0.235294
0.235294 0.235294 0.235294
0.235294 0.235294 0.235294
0.235294 0.235294 0.235294
0.235294 0.235294 0.235294
0.235294 0.235294 0.235294
0.235294 0.235294 0.235294
0.235294 0.235294 0.235294
0.235294 0.235294 0.235294
0.235294 0.235294 0.235294
0.235294 0.235294 0.235294
0.235294 0.235294 0.235294
0.235294 0.235294 0.235294
0.250980 0.250980 0.250980
0.262745 0.262745 0.262745
0.278431 0.278431 0.278431
0.294118 0.294118 0.294118
0.309804 0.309804 0.309804
0.349020 0.337255 0.305882
0.388235 0.360784 0.298039
0.427451 0.380392 0.290196
0.466667 0.400000 0.282353
0.505882 0.415686 0.274510
0.545098 0.427451 0.266667
0.584314 0.439216 0.258824
0.623529 0.450980 0.250980
0.666667 0.462745 0.239216
0.705882 0.470588 0.231373
0.745098 0.478431 0.223529
0.784314 0.482353 0.215686
0.250980 0.250980 0.250980
0.250980 0.250980 0.250980
0.250980 0.250980 0.250980
0.250980 0.250980 0.250980
0.250980 0.250980 0.250980
0.250980 0.250980 0.250980
0.250980 0.250980 0.250980
0.250980 0.250980 0.250980
0.250980 0.250980 0.250980
0.250980 0.250980 0.250980
0.250980 0.250980 0.250980
0.250980 0.250980 0.250980
0.250980 0.250980 0.250980
0.250980 0.250980 0.250980
0.250980 0.250980 0.250980
0.250980 0.250980 0.250980
0.250980 0.250980 0.250980
0.262745 0.262745 0.262745
0.278431 0.278431 0.278431
0.294118 0.294118 0.294118
0.309804 0.309804 0.309804
0.325490 0.325490 0.325490
0.356863 0.349020 0.329412
0.396078 0.372549 0.321569
0.435294 0.396078 0.313725
0.474510 0.415686 0.305882
0.513725 0.431373 0.298039
0.552941 0.447059 0.290196
0.592157 0.458824 0.282353
0.631373 0.470588 0.274510
0.670588 0.482353 0.266667
0.713725 0.494118 0.254902
0.752941 0.501961 0.247059
0.262745 0.262745 0.262745
0.262745 0.262745 0.262745
0.262745 0.262745 0.262745
0.262745 0.262745 0.262745
0.262745 0.262745 0.262745
0.262745 0.262745 0.262745
0.262745 0.262745 0.262745
0.262745 0.262745 0.262745
0.262745 0.262745 0.262745
0.262745 0.262745 0.262745
0.262745 0.262745 0.262745
0.262745 0.262745 0.262745
0.262745 0.262745 0.262745
0.262745 0.262745 0.262745
0.262745 0.262745 0.262745
0.262745 0.262745 0.262745
0.262745 0.262745 0.262745
0.262745 0.262745 0.262745
0.278431 0.278431 0.278431
0.294118 0.294118 0.294118
0.309804 0.309804 0.309804
0.325490 0.325490 0.325490
0.341176 0.341176 0.341176
0.368627 0.364706 0.349020
0.407843 0.388235 0.341176
0.447059 0.411765 0.333333
0.486275 0.431373 0.325490
0.525490 0.447059 0.317647
0.564706 0.462745 0.309804
0.603922 0.478431 0.301961
0.643137 0.490196 0.294118
0.682353 0.501961 0.286275
0.725490 0.513725 0.274510
0.278431 0.278431 0.278431
0.278431 0.278431 0.278431
0.278431 0.278431 0.278431
0.278431 0.278431 0.278431
0.278431 0.278431 0.278431
0.278431 0.278431 0.278431
0.278431 0.278431 0.278431
0.278431 0.278431 0.278431
0.278431 0.278431 0.278431
0.278431 0.278431 0.278431
0.278431 0.278431 0.278431
0.278431 0.278431 0.278431
0.278431 0.278431 0.278431
0.278431 0.278431 0.278431
0.278431 0.278431 0.278431
0.278431 0.278431 0.278431
0.278431 0.278431 0.278431
0.278431 0.278431 0.278431
0.278431 0.278431 0.278431
0.294118 0.294118 0.294118
0.309804 0.309804 0.309804
0.325490 0.325490 0.325490
0.341176 0.341176 0.341176
0.356863 0.356863 0.356863
0.376471 0.376471 0.372549
0.415686 0.400000 0.364706
0.454902 0.423529 0.356863
0.494118 0.447059 0.349020
0.533333 0.462745 0.341176
0.572549 0.482353 0.333333
0.611765 0.498039 0.325490
0.650980 0.509804 0.317647
0.690196 0.521569 0.309804
0.294118 0.294118 0.294118
0.294118 0.294118 0.294118
0.294118 0.294118 0.294118
0.294118 0.294118 0.294118
0.294118 0.294118 0.294118
0.294118 0.294118 0.294118
0.294118 0.294118 0.294118
0.294118 0.294118 0.294118
0.294118 0.294118 0.294118
0.294118 0.294118 0.294118
0.294118 0.294118 0.294118
0.294118 0.294118 0.294118
0.294118 0.294118 0.294118
0.294118 0.294118 0.294118
0.294118 0.294118 0.294118
0.294118 0.294118 0.294118
0.294118 0.294118 0.294118
0.294118 0.294118 0.294118
0.294118 0.294118 0.294118
0.294118 0.294118 0.294118
0.309804 0.309804 0.309804
0.325490 0.325490 0.325490
0.341176 0.341176 0.341176
0.356863 0.356863 0.356863
0.372549 0.372549 0.372549
0.388235 0.388235 0.388235
0.423529 0.411765 0.388235
0.462745 0.439216 0.380392
0.501961 0.458824 0.372549
0.541176 0.478431 0.364706
0.580392 0.498039 0.356863
0.619608 0.513725 0.349020
0.658824 0.529412 0.341176
0.309804 0.309804 0.309804
0.309804 0.309804 0.309804
0.309804 0.309804 0.309804
0.309804 0.309804 0.309804
0.309804 0.309804 0.309804
0.309804 0.309804 0.309804
0.309804 0.309804 0.309804
0.309804 0.309804 0.309804
0.309804 0.309804 0.309804
0.309804 0.309804 0.309804
0.309804 0.309804 0.309804
0.309804 0.309804 0.309804
0.309804 0.309804 0.309804
0.309804 0.309804 0.309804
0.309804 0.309804 0.309804
0.309804 0.309804 0.309804
0.309804 0.309804 0.309804
0.309804 0.309804 0.309804
0.309804 0.309804 0.309804
0.309804 0.309804 0.309804
0.309804 0.309804 0.309804
0.325490 0.325490 0.325490
0.341176 0.341176 0.341176
0.356863 0.356863 0.356863
0.372549 0.372549 0.372549
0.388235 0.388235 0.388235
0.403922 0.403922 0.403922
0.431373 0.427451 0.411765
0.470588 0.450980 0.403922
0.509804 0.474510 0.396078
0.549020 0.494118 0.388235
0.588235 0.513725 0.380392
0.627451 0.533333 0.372549
0.325490 0.325490 0.325490
0.325490 0.325490 0.325490
0.325490 0.325490 0.325490
0.325490 0.325490 0.325490
0.325490 0.325490 0.325490
0.325490 0.325490 0.325490
0.325490 0.325490 0.325490
0.325490 0.325490 0.325490
0.325490 0.325490 0.325490
0.325490 0.325490 0.325490
0.325490 0.325490 0.325490
0.325490 0.325490 0.325490
0.325490 0.325490 0.325490
0.325490 0.325490 0.325490
0.325490 0.325490 0.325490
0.325490 0.325490 0.325490
0.325490 0.325490 0.325490
0.325490 0.325490 0.325490
0.325490 0.325490 0.325490
0.325490 0.325490 0.325490
0.325490 0.325490 0.325490
0.325490 0.325490 0.325490
0.341176 0.341176 0.341176
0.356863 0.356863 0.356863
0.372549 0.372549 0.372549
0.388235 0.388235 0.388235
0.403922 0.403922 0.403922
0.419608 0.419608 0.419608
0.439216 0.439216 0.435294
0.478431 0.462745 0.427451
0.517647 0.486275 0.419608
0.556863 0.509804 0.411765
0.596078 0.529412 0.403922
0.341176 0.341176 0.341176
0.341176 0.341176 0.341176
0.341176 0.341176 0.341176
0.341176 0.341176 0.341176
0.341176 0.341176 0.341176
0.341176 0.341176 0.341176
0.341176 0.341176 0.341176
0.341176 0.341176 0.341176
0.341176 0.341176 0.341176
0.341176 0.341176 0.341176
0.341176 0.341176 0.341176
0.341176 0.341176 0.341176
0.341176 0.341176 0.341176
0.341176 0.341176 0.341176
0.341176 0.341176 0.341176
0.341176 0.341176 0.341176
0.341176 0.341176 0.341176
0.341176 0.341176 0.341176
0.341176 0.341176 0.341176
0.341176 0.341176 0.341176
0.341176 0.341176 0.341176
0.341176 0.341176 0.341176
0.341176 0.341176 0.341176
0.356863 0.356863 0.356863
0.372549 0.372549 0.372549
0.388235 0.388235 0.388235
0.403922 0.403922 0.403922
0.419608 0.419608 0.419608
0.435294 0.435294 0.435294
0.450980 0.450980 0.450980
0.486275 0.478431 0.450980
0.525490 0.501961 0.443137
0.564706 0.525490 0.435294
0.356863 0.356863 0.356863
0.356863 0.356863 0.356863
0.356863 0.356863 0.356863
0.356863 0.356863 0.356863
0.356863 0.356863 0.356863
0.356863 0.356863 0.356863
0.356863 0.356863 0.356863
0.356863 0.356863 0.356863
0.356863 0.356863 0.356863
0.356863 0.356863 0.356863
0.356863 0.356863 0.356863
0.356863 0.356863 0.356863
0.356863 0.356863 0.356863
0.356863 0.356863 0.356863
0.356863 0.356863 0.356863
0.356863 0.356863 0.356863
0.356863 0.356863 0.356863
0.356863 0.356863 0.356863
0.356863 0.356863 0.356863
0.356863 0.356863 0.356863
0.356863 0.356863 0.356863
0.356863 0.356863 0.356863
0.356863 0.356863 0.356863
0.356863 0.356863 0.356863
0.372549 0.372549 0.372549
0.388235 0.388235 0.388235
0.403922 0.403922 0.403922
0.419608 0.419608 0.419608
0.435294 0.435294 0.435294
0.450980 0.450980 0.450980
0.466667 0.466667 0.466667
0.494118 0.490196 0.474510
0.533333 0.513725 0.466667
0.372549 0.372549 0.372549
0.372549 0.372549 0.372549
0.372549 0.372549 0.372549
0.372549 0.372549 0.372549
0.372549 0.372549 0.372549
0.372549 0.372549 0.372549
0.372549 0.372549 0.372549
0.372549 0.372549 0.372549
0.372549 0.372549 0.372549
0.372549 0.372549 0.372549
0.372549 0.372549 0.372549
0.372549 0.372549 0.372549
0.372549 0.372549 0.372549
0.372549 0.372549 0.372549
0.372549 0.372549 0.372549
0.372549 0.372549 0.372549
0.372549 0.372549 0.372549
0.372549 0.372549 0.372549
0.372549 0.372549 0.372549
0.372549 0.372549 0.372549
0.372549 0.372549 0.372549
0.372549 0.372549 0.372549
0.372549 0.372549 0.372549
0.372549 0.372549 0.372549
0.372549 0.372549 0.372549
0.388235 0.388235 0.388235
0.403922 0.403922 0.403922
0.419608 0.419608 0.419608
0.435294 0.435294 0.435294
0.450980 0.450980 0.450980
0.466667 0.466667 0.466667
0.482353 0.482353 0.482353
0.501961 0.501961 0.498039
0.388235 0.388235 0.388235
0.388235 0.388235 0.388235
0.388235 0.388235 0.388235
0.388235 0.388235 0.388235
0.388235 0.388235 0.388235
0.388235 0.388235 0.388235
0.388235 0.388235 0.388235
0.388235 0.388235 0.388235
0.388235 0.388235 0.388235
0.388235 0.388235 0.388235
0.388235 0.388235 0.388235
0.388235 0.388235 0.388235
0.388235 0.388235 0.388235
0.388235 0.388235 0.388235
0.388235 0.388235 0.388235
0.388235 0.388235 0.388235
0.388235 0.388235 0.388235
0.388235 0.388235 0.388235
0.388235 0.388235 0.388235
0.388235 0.388235 0.388235
0.388235 0.388235 0.388235
0.388235 0.388235 0.388235
0.388235 0.388235 0.388235
0.388235 0.388235 0.388235
0.388235 0.388235 0.388235
0.388235 0.388235 0.388235
0.403922 0.403922 0.403922
0.419608 0.419608 0.419608
0.435294 0.435294 0.435294
0.450980 0.450980 0.450980
0.466667 0.466667 0.466667
0.482353 0.482353 0.482353
0.501961 0.501961 0.501961
0.403922 0.403922 0.403922
0.403922 0.403922 0.403922
0.403922 0.403922 0.403922
0.403922 0.403922 0.403922
0.403922 0.403922 0.403922
0.403922 0.403922 0.403922
0.403922 0.403922 0.403922
0.403922 0.403922 0.403922
0.403922 0.403922 0.403922
0.403922 0.403922 0.403922
0.403922 0.403922 0.403922
0.403922 0.403922 0.403922
0.403922 0.403922 0.403922
0.403922 0.403922 0.403922
0.403922 0.403922 0.403922
0.403922 0.403922 0.403922
0.403922 0.403922 0.403922
0.403922 0.403922 0.403922
0.403922 0.403922 0.403922
0.403922 0.403922 0.403922
0.403922 0.403922 0.403922
0.403922 0.403922 0.403922
0.403922 0.403922 0.403922
0.403922 0.403922 0.403922
