assets/lut/bw_red.cube
#Created by www.Photopea.com
TITLE "Screenshot from 2026-03-19 16-21-12.png"
#LUT size
LUT_3D_SIZE 9
#data domain
DOMAIN_MIN 0.0 0.0 0.0
DOMAIN_MAX 1.0 1.0 1.0
#LUT data points
0.000000 0.000000 0.000000
0.125490 0.000000 0.000000
0.250980 0.000000 0.000000
0.376471 0.000000 0.000000
0.501961 0.000000 0.000000
0.623529 0.000000 0.000000
0.749020 0.000000 0.000000
0.874510 0.000000 0.000000
1.000000 0.000000 0.000000
0.062745 0.062745 0.062745
0.062745 0.062745 0.062745
0.188235 0.125490 0.062745
0.349020 0.133333 0.027451
0.501961 0.125490 0.000000
0.623529 0.125490 0.000000
0.749020 0.125490 0.000000
0.874510 0.125490 0.000000
1.000000 0.121569 0.000000
0.125490 0.125490 0.125490
0.125490 0.125490 0.125490
0.125490 0.125490 0.125490
0.219608 0.200000 0.156863
0.376471 0.250980 0.125490
0.533333 0.266667 0.090196
0.690196 0.270588 0.058824
0.847059 0.262745 0.027451
1.000000 0.250980 0.000000
0.188235 0.188235 0.188235
0.188235 0.188235 0.188235
0.188235 0.188235 0.188235
0.188235 0.188235 0.188235
0.250980 0.250980 0.250980
0.403922 0.329412 0.219608
0.560784 0.376471 0.188235
0.721569 0.396078 0.152941
0.878431 0.403922 0.121569
0.250980 0.250980 0.250980
0.250980 0.250980 0.250980
0.250980 0.250980 0.250980
0.250980 0.250980 0.250980
0.250980 0.250980 0.250980
0.309804 0.309804 0.309804
0.435294 0.396078 0.313725
0.592157 0.458824 0.282353
0.752941 0.501961 0.247059
0.309804 0.309804 0.309804
0.309804 0.309804 0.309804
0.309804 0.309804 0.309804
0.309804 0.309804 0.309804
0.309804 0.309804 0.309804
0.309804 0.309804 0.309804
0.372549 0.372549 0.372549
0.470588 0.450980 0.403922
0.627451 0.533333 0.372549
0.372549 0.372549 0.372549
0.372549 0.372549 0.372549
0.372549 0.372549 0.372549
0.372549 0.372549 0.372549
0.372549 0.372549 0.372549
0.372549 0.372549 0.372549
0.372549 0.372549 0.372549
0.435294 0.435294 0.435294
0.501961 0.501961 0.498039
0.435294 0.435294 0.435294
0.435294 0.435294 0.435294
0.435294 0.435294 0.435294
0.435294 0.435294 0.435294
0.435294 0.435294 0.435294
0.435294 0.435294 0.435294
0.435294 0.435294 0.435294
0.435294 0.435294 0.435294
0.501961 0.501961 0.501961
0.501961 0.501961 0.501961
0.501961 0.501961 0.501961
0.501961 0.501961 0.501961
0.501961 0.501961 0.501961
0.501961 0.501961 0.501961
0.501961 0.501961 0.501961
0.501961 0.501961 0.501961
0.501961 0.501961 0.501961
0.501961 0.501961 0.501961
0.062745 0.062745 0.062745
0.062745 0.062745 0.062745
0.192157 0.058824 0.121569
0.352941 0.023529 0.125490
0.501961 0.000000 0.113725
0.623529 0.000000 0.113725
0.749020 0.000000 0.109804
0.874510 0.000000 0.105882
1.000000 0.000000 0.105882
0.062745 0.062745 0.062745
0.125490 0.125490 0.125490
0.250980 0.125490 0.125490
0.376471 0.125490 0.125490
0.505882 0.121569 0.121569
0.627451 0.121569 0.121569
0.752941 0.121569 0.121569
0.878431 0.121569 0.121569
1.000000 0.125490 0.125490
0.125490 0.125490 0.125490
0.188235 0.188235 0.188235
0.188235 0.188235 0.188235
0.313725 0.250980 0.188235
0.474510 0.258824 0.152941
0.623529 0.250980 0.125490
0.752941 0.247059 0.121569
0.878431 0.247059 0.121569
1.000000 0.250980 0.125490
0.188235 0.188235 0.188235
0.250980 0.250980 0.250980
0.250980 0.250980 0.250980
0.250980 0.250980 0.250980
0.345098 0.325490 0.282353
0.498039 0.376471 0.250980
0.658824 0.392157 0.215686
0.815686 0.396078 0.184314
0.972549 0.388235 0.152941
0.250980 0.250980 0.250980
0.313725 0.313725 0.313725
0.313725 0.313725 0.313725
0.313725 0.313725 0.313725
0.313725 0.313725 0.313725
0.372549 0.372549 0.372549
0.529412 0.454902 0.345098
0.686275 0.501961 0.313725
0.847059 0.521569 0.278431
0.309804 0.309804 0.309804
0.372549 0.372549 0.372549
0.372549 0.372549 0.372549
0.372549 0.372549 0.372549
0.372549 0.372549 0.372549
0.372549 0.372549 0.372549
0.435294 0.435294 0.435294
0.564706 0.521569 0.435294
0.721569 0.584314 0.403922
0.372549 0.372549 0.372549
0.435294 0.435294 0.435294
0.435294 0.435294 0.435294
0.435294 0.435294 0.435294
0.435294 0.435294 0.435294
0.435294 0.435294 0.435294
0.435294 0.435294 0.435294
0.501961 0.501961 0.501961
0.596078 0.576471 0.529412
0.435294 0.435294 0.435294
0.501961 0.501961 0.501961
0.501961 0.501961 0.501961
0.501961 0.501961 0.501961
0.501961 0.501961 0.501961
0.501961 0.501961 0.501961
0.501961 0.501961 0.501961
0.501961 0.501961 0.501961
0.560784 0.560784 0.560784
0.501961 0.501961 0.501961
0.560784 0.560784 0.560784
0.560784 0.560784 0.560784
0.560784 0.560784 0.560784
0.560784 0.560784 0.560784
0.560784 0.560784 0.560784
0.560784 0.560784 0.560784
0.560784 0.560784 0.560784
0.560784 0.560784 0.560784
0.125490 0.125490 0.125490
0.125490 0.125490 0.125490
0.125490 0.125490 0.125490
0.227451 0.149020 0.200000
0.388235 0.113725 0.247059
0.541176 0.082353 0.258824
0.701961 0.047059 0.254902
0.862745 0.011765 0.239216
1.000000 0.000000 0.231373
0.125490 0.125490 0.125490
0.188235 0.188235 0.188235
0.188235 0.188235 0.188235
0.317647 0.184314 0.247059
0.478431 0.149020 0.250980
0.627451 0.121569 0.239216
0.752941 0.121569 0.235294
0.878431 0.121569 0.231373
1.000000 0.125490 0.231373
0.125490 0.125490 0.125490
0.188235 0.188235 0.188235
0.250980 0.250980 0.250980
0.376471 0.250980 0.250980
0.501961 0.250980 0.250980
0.627451 0.247059 0.247059
0.752941 0.247059 0.247059
0.878431 0.247059 0.247059
1.000000 0.250980 0.250980
0.188235 0.188235 0.188235
0.250980 0.250980 0.250980
0.313725 0.313725 0.313725
0.313725 0.313725 0.313725
0.439216 0.376471 0.313725
0.592157 0.384314 0.282353
0.749020 0.376471 0.250980
0.878431 0.372549 0.247059
1.000000 0.376471 0.250980
0.250980 0.250980 0.250980
0.313725 0.313725 0.313725
0.376471 0.376471 0.376471
0.376471 0.376471 0.376471
0.376471 0.376471 0.376471
0.466667 0.447059 0.407843
0.623529 0.501961 0.376471
0.784314 0.517647 0.341176
0.941176 0.521569 0.309804
0.309804 0.309804 0.309804
0.372549 0.372549 0.372549
0.435294 0.435294 0.435294
0.435294 0.435294 0.435294
0.435294 0.435294 0.435294
0.435294 0.435294 0.435294
0.501961 0.501961 0.498039
0.658824 0.580392 0.466667
0.815686 0.623529 0.435294
0.372549 0.372549 0.372549
0.435294 0.435294 0.435294
0.501961 0.501961 0.501961
0.501961 0.501961 0.501961
0.501961 0.501961 0.501961
0.501961 0.501961 0.501961
0.501961 0.501961 0.501961
0.560784 0.560784 0.560784
0.690196 0.647059 0.560784
0.435294 0.435294 0.435294
0.501961 0.501961 0.501961
0.560784 0.560784 0.560784
0.560784 0.560784 0.560784
0.560784 0.560784 0.560784
0.560784 0.560784 0.560784
0.560784 0.560784 0.560784
0.560784 0.560784 0.560784
0.623529 0.623529 0.623529
0.501961 0.501961 0.501961
0.560784 0.560784 0.560784
0.623529 0.623529 0.623529
0.623529 0.623529 0.623529
0.623529 0.623529 0.623529
0.623529 0.623529 0.623529
0.623529 0.623529 0.623529
0.623529 0.623529 0.623529
0.623529 0.623529 0.623529
0.188235 0.188235 0.188235
0.188235 0.188235 0.188235
0.188235 0.188235 0.188235
0.188235 0.188235 0.188235
0.258824 0.243137 0.254902
0.415686 0.207843 0.329412
0.576471 0.172549 0.368627
0.737255 0.137255 0.384314
0.898039 0.101961 0.388235
0.188235 0.188235 0.188235
0.250980 0.250980 0.250980
0.250980 0.250980 0.250980
0.250980 0.250980 0.250980
0.352941 0.274510 0.325490
0.509804 0.239216 0.368627
0.666667 0.207843 0.384314
0.827451 0.172549 0.380392
0.988235 0.137255 0.364706
0.188235 0.188235 0.188235
0.250980 0.250980 0.250980
0.313725 0.313725 0.313725
0.313725 0.313725 0.313725
0.443137 0.309804 0.372549
0.600000 0.274510 0.376471
0.752941 0.247059 0.364706
0.878431 0.247059 0.360784
1.000000 0.250980 0.360784
0.188235 0.188235 0.188235
0.250980 0.250980 0.250980
0.313725 0.313725 0.313725
0.376471 0.376471 0.376471
0.501961 0.376471 0.376471
0.623529 0.376471 0.376471
0.752941 0.372549 0.372549
0.878431 0.372549 0.372549
1.000000 0.376471 0.376471
0.250980 0.250980 0.250980
0.313725 0.313725 0.313725
0.376471 0.376471 0.376471
0.439216 0.439216 0.439216
0.439216 0.439216 0.439216
0.560784 0.501961 0.439216
0.717647 0.509804 0.407843
0.874510 0.501961 0.376471
1.000000 0.501961 0.376471
0.309804 0.309804 0.309804
0.372549 0.372549 0.372549
0.435294 0.435294 0.435294
0.501961 0.501961 0.501961
0.501961 0.501961 0.501961
0.501961 0.501961 0.501961
0.596078 0.572549 0.529412
0.752941 0.623529 0.498039
0.913725 0.643137 0.462745
0.372549 0.372549 0.372549
0.435294 0.435294 0.435294
0.501961 0.501961 0.501961
0.560784 0.560784 0.560784
0.560784 0.560784 0.560784
0.560784 0.560784 0.560784
0.560784 0.560784 0.560784
0.627451 0.627451 0.623529
0.784314 0.705882 0.592157
0.435294 0.435294 0.435294
0.501961 0.501961 0.501961
0.560784 0.560784 0.560784
0.623529 0.623529 0.623529
0.623529 0.623529 0.623529
0.623529 0.623529 0.623529
0.623529 0.623529 0.623529
0.623529 0.623529 0.623529
0.686275 0.686275 0.686275
0.501961 0.501961 0.501961
0.560784 0.560784 0.560784
0.623529 0.623529 0.623529
0.686275 0.686275 0.686275
0.686275 0.686275 0.686275
0.686275 0.686275 0.686275
0.686275 0.686275 0.686275
0.686275 0.686275 0.686275
0.686275 0.686275 0.686275
0.250980 0.250980 0.250980
0.250980 0.250980 0.250980
0.250980 0.250980 0.250980
0.250980 0.250980 0.250980
0.250980 0.250980 0.250980
0.309804 0.309804 0.309804
0.447059 0.301961 0.396078
0.607843 0.266667 0.454902
0.768627 0.231373 0.490196
0.250980 0.250980 0.250980
0.313725 0.313725 0.313725
0.313725 0.313725 0.313725
0.313725 0.313725 0.313725
0.313725 0.313725 0.313725
0.380392 0.368627 0.376471
0.541176 0.333333 0.454902
0.701961 0.298039 0.494118
0.862745 0.262745 0.509804
0.250980 0.250980 0.250980
0.313725 0.313725 0.313725
0.376471 0.376471 0.376471
0.376471 0.376471 0.376471
0.376471 0.376471 0.376471
0.474510 0.400000 0.447059
0.635294 0.364706 0.494118
0.792157 0.333333 0.509804
0.952941 0.298039 0.505882
0.250980 0.250980 0.250980
0.313725 0.313725 0.313725
0.376471 0.376471 0.376471
0.439216 0.439216 0.439216
0.439216 0.439216 0.439216
0.564706 0.435294 0.498039
0.725490 0.400000 0.501961
0.878431 0.372549 0.490196
1.000000 0.376471 0.490196
0.250980 0.250980 0.250980
0.313725 0.313725 0.313725
0.376471 0.376471 0.376471
0.439216 0.439216 0.439216
0.501961 0.501961 0.501961
0.623529 0.501961 0.501961
0.749020 0.501961 0.501961
0.878431 0.498039 0.498039
1.000000 0.501961 0.501961
0.309804 0.309804 0.309804
0.372549 0.372549 0.372549
0.435294 0.435294 0.435294
0.501961 0.501961 0.501961
0.560784 0.560784 0.560784
0.560784 0.560784 0.560784
0.690196 0.623529 0.560784
0.847059 0.631373 0.529412
1.000000 0.623529 0.501961
0.372549 0.372549 0.372549
0.435294 0.435294 0.435294
0.501961 0.501961 0.501961
0.560784 0.560784 0.560784
0.623529 0.623529 0.623529
0.623529 0.623529 0.623529
0.623529 0.623529 0.623529
0.721569 0.698039 0.654902
0.878431 0.749020 0.623529
0.435294 0.435294 0.435294
0.501961 0.501961 0.501961
0.560784 0.560784 0.560784
0.623529 0.623529 0.623529
0.686275 0.686275 0.686275
0.686275 0.686275 0.686275
0.686275 0.686275 0.686275
0.686275 0.686275 0.686275
0.752941 0.752941 0.749020
0.501961 0.501961 0.501961
0.560784 0.560784 0.560784
0.623529 0.623529 0.623529
0.686275 0.686275 0.686275
0.749020 0.749020 0.749020
0.749020 0.749020 0.749020
0.749020 0.749020 0.749020
0.749020 0.749020 0.749020
0.749020 0.749020 0.749020
0.309804 0.309804 0.309804
0.309804 0.309804 0.309804
0.309804 0.309804 0.309804
0.309804 0.309804 0.309804
0.309804 0.309804 0.309804
0.309804 0.309804 0.309804
0.372549 0.372549 0.372549
0.486275 0.388235 0.454902
0.647059 0.352941 0.529412
0.309804 0.309804 0.309804
0.372549 0.372549 0.372549
0.372549 0.372549 0.372549
0.372549 0.372549 0.372549
0.372549 0.372549 0.372549
0.372549 0.372549 0.372549
0.435294 0.435294 0.435294
0.576471 0.423529 0.521569
0.737255 0.388235 0.580392
0.309804 0.309804 0.309804
0.372549 0.372549 0.372549
0.435294 0.435294 0.435294
0.435294 0.435294 0.435294
0.435294 0.435294 0.435294
0.435294 0.435294 0.435294
0.509804 0.490196 0.505882
0.670588 0.454902 0.580392
0.831373 0.419608 0.615686
0.309804 0.309804 0.309804
0.372549 0.372549 0.372549
0.435294 0.435294 0.435294
0.501961 0.501961 0.501961
0.501961 0.501961 0.501961
0.501961 0.501961 0.501961
0.603922 0.521569 0.572549
0.764706 0.486275 0.619608
0.921569 0.454902 0.631373
0.309804 0.309804 0.309804
0.372549 0.372549 0.372549
0.435294 0.435294 0.435294
0.501961 0.501961 0.501961
0.560784 0.560784 0.560784
0.560784 0.560784 0.560784
0.694118 0.556863 0.623529
0.854902 0.521569 0.623529
1.000000 0.501961 0.611765
0.309804 0.309804 0.309804
0.372549 0.372549 0.372549
0.435294 0.435294 0.435294
0.501961 0.501961 0.501961
0.560784 0.560784 0.560784
0.623529 0.623529 0.623529
0.749020 0.623529 0.623529
0.874510 0.623529 0.623529
1.000000 0.623529 0.623529
0.372549 0.372549 0.372549
0.435294 0.435294 0.435294
0.501961 0.501961 0.501961
0.560784 0.560784 0.560784
0.623529 0.623529 0.623529
0.686275 0.686275 0.686275
0.686275 0.686275 0.686275
0.811765 0.749020 0.686275
0.972549 0.756863 0.650980
0.435294 0.435294 0.435294
0.501961 0.501961 0.501961
0.560784 0.560784 0.560784
0.623529 0.623529 0.623529
0.686275 0.686275 0.686275
0.749020 0.749020 0.749020
0.749020 0.749020 0.749020
0.749020 0.749020 0.749020
0.843137 0.823529 0.780392
0.501961 0.501961 0.501961
0.560784 0.560784 0.560784
0.623529 0.623529 0.623529
0.686275 0.686275 0.686275
0.749020 0.749020 0.749020
0.811765 0.811765 0.811765
0.811765 0.811765 0.811765
0.811765 0.811765 0.811765
0.811765 0.811765 0.811765
0.372549 0.372549 0.372549
0.372549 0.372549 0.372549
0.372549 0.372549 0.372549
0.372549 0.372549 0.372549
0.372549 0.372549 0.372549
0.372549 0.372549 0.372549
0.372549 0.372549 0.372549
0.435294 0.435294 0.435294
0.517647 0.482353 0.509804
0.372549 0.372549 0.372549
0.435294 0.435294 0.435294
0.435294 0.435294 0.435294
0.435294 0.435294 0.435294
0.435294 0.435294 0.435294
0.435294 0.435294 0.435294
0.435294 0.435294 0.435294
0.501961 0.501961 0.501961
0.611765 0.513725 0.580392
0.372549 0.372549 0.372549
0.435294 0.435294 0.435294
0.501961 0.501961 0.501961
0.501961 0.501961 0.501961
0.501961 0.501961 0.501961
0.501961 0.501961 0.501961
0.501961 0.501961 0.501961
0.560784 0.560784 0.560784
0.701961 0.549020 0.647059
0.372549 0.372549 0.372549
0.435294 0.435294 0.435294
0.501961 0.501961 0.501961
0.560784 0.560784 0.560784
0.560784 0.560784 0.560784
0.560784 0.560784 0.560784
0.560784 0.560784 0.560784
0.635294 0.615686 0.631373
0.796078 0.580392 0.705882
0.372549 0.372549 0.372549
0.435294 0.435294 0.435294
0.501961 0.501961 0.501961
0.560784 0.560784 0.560784
0.623529 0.623529 0.623529
0.623529 0.623529 0.623529
0.623529 0.623529 0.623529
0.729412 0.647059 0.698039
0.890196 0.611765 0.745098
0.372549 0.372549 0.372549
0.435294 0.435294 0.435294
0.501961 0.501961 0.501961
0.560784 0.560784 0.560784
0.623529 0.623529 0.623529
0.686275 0.686275 0.686275
0.686275 0.686275 0.686275
0.815686 0.682353 0.745098
0.976471 0.647059 0.749020
0.372549 0.372549 0.372549
0.435294 0.435294 0.435294
0.501961 0.501961 0.501961
0.560784 0.560784 0.560784
0.623529 0.623529 0.623529
0.686275 0.686275 0.686275
0.749020 0.749020 0.749020
0.874510 0.749020 0.749020
1.000000 0.749020 0.749020
0.435294 0.435294 0.435294
0.501961 0.501961 0.501961
0.560784 0.560784 0.560784
0.623529 0.623529 0.623529
0.686275 0.686275 0.686275
0.749020 0.749020 0.749020
0.811765 0.811765 0.811765
0.811765 0.811765 0.811765
0.937255 0.874510 0.811765
0.501961 0.501961 0.501961
0.560784 0.560784 0.560784
0.623529 0.623529 0.623529
0.686275 0.686275 0.686275
0.749020 0.749020 0.749020
0.811765 0.811765 0.811765
0.874510 0.874510 0.874510
0.874510 0.874510 0.874510
0.874510 0.874510 0.874510
0.435294 0.435294 0.435294
0.435294 0.435294 0.435294
0.435294 0.435294 0.435294
0.435294 0.435294 0.435294
0.435294 0.435294 0.435294
0.435294 0.435294 0.435294
0.435294 0.435294 0.435294
0.435294 0.435294 0.435294
0.501961 0.501961 0.501961
0.435294 0.435294 0.435294
0.501961 0.501961 0.501961
0.501961 0.501961 0.501961
0.501961 0.501961 0.501961
0.501961 0.501961 0.501961
0.501961 0.501961 0.501961
0.501961 0.501961 0.501961
0.501961 0.501961 0.501961
0.560784 0.560784 0.560784
0.435294 0.435294 0.435294
0.501961 0.501961 0.501961
0.560784 0.560784 0.560784
0.560784 0.560784 0.560784
0.560784 0.560784 0.560784
0.560784 0.560784 0.560784
0.560784 0.560784 0.560784
0.560784 0.560784 0.560784
0.623529 0.623529 0.623529
0.435294 0.435294 0.435294
0.501961 0.501961 0.501961
0.560784 0.560784 0.560784
0.623529 0.623529 0.623529
0.623529 0.623529 0.623529
0.623529 0.623529 0.623529
0.623529 0.623529 0.623529
0.623529 0.623529 0.623529
0.686275 0.686275 0.686275
0.435294 0.435294 0.435294
0.501961 0.501961 0.501961
0.560784 0.560784 0.560784
0.623529 0.623529 0.623529
0.686275 0.686275 0.686275
0.686275 0.686275 0.686275
0.686275 0.686275 0.686275
0.686275 0.686275 0.686275
0.760784 0.741176 0.756863
0.435294 0.435294 0.435294
0.501961 0.501961 0.501961
0.560784 0.560784 0.560784
0.623529 0.623529 0.623529
0.686275 0.686275 0.686275
0.749020 0.749020 0.749020
0.749020 0.749020 0.749020
0.749020 0.749020 0.749020
0.850980 0.772549 0.823529
0.435294 0.435294 0.435294
0.501961 0.501961 0.501961
0.560784 0.560784 0.560784
0.623529 0.623529 0.623529
0.686275 0.686275 0.686275
0.749020 0.749020 0.749020
0.811765 0.811765 0.811765
0.811765 0.811765 0.811765
0.941176 0.807843 0.870588
0.435294 0.435294 0.435294
0.501961 0.501961 0.501961
0.560784 0.560784 0.560784
0.623529 0.623529 0.623529
0.686275 0.686275 0.686275
0.749020 0.749020 0.749020
0.811765 0.811765 0.811765
0.874510 0.874510 0.874510
1.000000 0.874510 0.874510
0.501961 0.501961 0.501961
0.560784 0.560784 0.560784
0.623529 0.623529 0.623529
0.686275 0.686275 0.686275
0.749020 0.749020 0.749020
0.811765 0.811765 0.811765
0.874510 0.874510 0.874510
0.937255 0.937255 0.937255
0.937255 0.937255 0.937255
0.501961 0.501961 0.501961
0.501961 0.501961 0.501961
0.501961 0.501961 0.501961
0.501961 0.501961 0.501961
0.501961 0.501961 0.501961
0.501961 0.501961 0.501961
0.501961 0.501961 0.501961
0.501961 0.501961 0.501961
0.501961 0.501961 0.501961
0.501961 0.501961 0.501961
0.560784 0.560784 0.560784
0.560784 0.560784 0.560784
0.560784 0.560784 0.560784
0.560784 0.560784 0.560784
0.560784 0.560784 0.560784
0.560784 0.560784 0.560784
0.560784 0.560784 0.560784
0.560784 0.560784 0.560784
0.501961 0.501961 0.501961
0.560784 0.560784 0.560784
0.623529 0.623529 0.623529
0.623529 0.623529 0.623529
0.623529 0.623529 0.623529
0.623529 0.623529 0.623529
0.623529 0.623529 0.623529
0.623529 0.623529 0.623529
0.623529 0.623529 0.623529
0.501961 0.501961 0.501961
0.560784 0.560784 0.560784
0.623529 0.623529 0.623529
0.686275 0.686275 0.686275
0.686275 0.686275 0.686275
0.686275 0.686275 0.686275
0.686275 0.686275 0.686275
0.686275 0.686275 0.686275
0.686275 0.686275 0.686275
0.501961 0.501961 0.501961
0.560784 0.560784 0.560784
0.623529 0.623529 0.623529
0.686275 0.686275 0.686275
0.749020 0.749020 0.749020
0.749020 0.749020 0.749020
0.749020 0.749020 0.749020
0.749020 0.749020 0.749020
0.749020 0.749020 0.749020
0.501961 0.501961 0.501961
0.560784 0.560784 0.560784
0.623529 0.623529 0.623529
0.686275 0.686275 0.686275
0.749020 0.749020 0.749020
0.811765 0.811765 0.811765
0.811765 0.811765 0.811765
0.811765 0.811765 0.811765
0.811765 0.811765 0.811765
0.501961 0.501961 0.501961
0.560784 0.560784 0.560784
0.623529 0.623529 0.623529
0.686275 0.686275 0.686275
0.749020 0.749020 0.749020
0.811765 0.811765 0.811765
0.874510 0.874510 0.874510
0.874510 0.874510 0.874510
0.874510 0.874510 0.874510
0.501961 0.501961 0.501961
0.560784 0.560784 0.560784
0.623529 0.623529 0.623529
0.686275 0.686275 0.686275
0.749020 0.749020 0.749020
0.811765 0.811765 0.811765
0.874510 0.874510 0.874510
0.937255 0.937255 0.937255
0.937255 0.937255 0.937255
0.501961 0.501961 0.501961
0.560784 0.560784 0.560784
0.623529 0.623529 0.623529
0.686275 0.686275 0.686275
0.749020 0.749020 0.749020
0.811765 0.811765 0.811765
0.874510 0.874510 0.874510
0.937255 0.937255 0.937255
1.000000 1.000000 1.000000
