assets/lut/bw_red.cube
#Created by www.Photopea.com
TITLE "Screenshot from 2026-03-19 16-21-12.png"
#LUT size
LUT_3D_SIZE 5
#data domain
DOMAIN_MIN 0.0 0.0 0.0
DOMAIN_MAX 1.0 1.0 1.0
#LUT data points
0.000000 0.000000 0.000000
0.250980 0.000000 0.000000
0.501961 0.000000 0.000000
0.749020 0.000000 0.000000
1.000000 0.000000 0.000000
0.125490 0.125490 0.125490
0.125490 0.125490 0.125490
0.376471 0.250980 0.125490
0.690196 0.270588 0.058824
1.000000 0.250980 0.000000
0.250980 0.250980 0.250980
0.250980 0.250980 0.250980
0.250980 0.250980 0.250980
0.435294 0.396078 0.313725
0.752941 0.501961 0.247059
0.372549 0.372549 0.372549
0.372549 0.372549 0.372549
0.372549 0.372549 0.372549
0.372549 0.372549 0.372549
0.501961 0.501961 0.498039
0.501961 0.501961 0.501961
0.501961 0.501961 0.501961
0.501961 0.501961 0.501961
0.501961 0.501961 0.501961
0.501961 0.501961 0.501961
0.125490 0.125490 0.125490
0.125490 0.125490 0.125490
0.388235 0.113725 0.247059
0.701961 0.047059 0.254902
1.000000 0.000000 0.231373
0.125490 0.125490 0.125490
0.250980 0.250980 0.250980
0.501961 0.250980 0.250980
0.752941 0.247059 0.247059
1.000000 0.250980 0.250980
0.250980 0.250980 0.250980
0.376471 0.376471 0.376471
0.376471 0.376471 0.376471
0.623529 0.501961 0.376471
0.941176 0.521569 0.309804
0.372549 0.372549 0.372549
0.501961 0.501961 0.501961
0.501961 0.501961 0.501961
0.501961 0.501961 0.501961
0.690196 0.647059 0.560784
0.501961 0.501961 0.501961
0.623529 0.623529 0.623529
0.623529 0.623529 0.623529
0.623529 0.623529 0.623529
0.623529 0.623529 0.623529
0.250980 0.250980 0.250980
0.250980 0.250980 0.250980
0.250980 0.250980 0.250980
0.447059 0.301961 0.396078
0.768627 0.231373 0.490196
0.250980 0.250980 0.250980
0.376471 0.376471 0.376471
0.376471 0.376471 0.376471
0.635294 0.364706 0.494118
0.952941 0.298039 0.505882
0.250980 0.250980 0.250980
0.376471 0.376471 0.376471
0.501961 0.501961 0.501961
0.749020 0.501961 0.501961
1.000000 0.501961 0.501961
0.372549 0.372549 0.372549
0.501961 0.501961 0.501961
0.623529 0.623529 0.623529
0.623529 0.623529 0.623529
0.878431 0.749020 0.623529
0.501961 0.501961 0.501961
0.623529 0.623529 0.623529
0.749020 0.749020 0.749020
0.749020 0.749020 0.749020
0.749020 0.749020 0.749020
0.372549 0.372549 0.372549
0.372549 0.372549 0.372549
0.372549 0.372549 0.372549
0.372549 0.372549 0.372549
0.517647 0.482353 0.509804
0.372549 0.372549 0.372549
0.501961 0.501961 0.501961
0.501961 0.501961 0.501961
0.501961 0.501961 0.501961
0.701961 0.549020 0.647059
0.372549 0.372549 0.372549
0.501961 0.501961 0.501961
0.623529 0.623529 0.623529
0.623529 0.623529 0.623529
0.890196 0.611765 0.745098
0.372549 0.372549 0.372549
0.501961 0.501961 0.501961
0.623529 0.623529 0.623529
0.749020 0.749020 0.749020
1.000000 0.749020 0.749020
0.501961 0.501961 0.501961
0.623529 0.623529 0.623529
0.749020 0.749020 0.749020
0.874510 0.874510 0.874510
0.874510 0.874510 0.874510
0.501961 0.501961 0.501961
0.501961 0.501961 0.501961
0.501961 0.501961 0.501961
0.501961 0.501961 0.501961
0.501961 0.501961 0.501961
0.501961 0.501961 0.501961
0.623529 0.623529 0.623529
0.623529 0.623529 0.623529
0.623529 0.623529 0.623529
0.623529 0.623529 0.623529
0.501961 0.501961 0.501961
0.623529 0.623529 0.623529
0.749020 0.749020 0.749020
0.749020 0.749020 0.749020
0.749020 0.749020 0.749020
0.501961 0.501961 0.501961
0.623529 0.623529 0.623529
0.749020 0.749020 0.749020
0.874510 0.874510 0.874510
0.874510 0.874510 0.874510
0.501961 0.501961 0.501961
0.623529 0.623529 0.623529
0.749020 0.749020 0.749020
0.874510 0.874510 0.874510
1.000000 1.000000 1.000000
