assets/lut/poo.CUBE
#Created by www.Photopea.com
TITLE "Screenshot from 2026-03-19 16-21-12.png"
#LUT size
LUT_3D_SIZE 33
#data domain
DOMAIN_MIN 0.0 0.0 0.0
DOMAIN_MAX 1.0 1.0 1.0
#LUT data points
0.035294 0.035294 0.035294
0.058824 0.027451 0.031373
0.090196 0.019608 0.027451
0.129412 0.011765 0.023529
0.168627 0.011765 0.023529
0.203922 0.007843 0.023529
0.254902 0.007843 0.023529
0.321569 0.023529 0.019608
0.388235 0.035294 0.011765
0.454902 0.050980 0.003922
0.560784 0.082353 0.003922
0.650980 0.105882 0.000000
0.737255 0.137255 0.007843
0.807843 0.203922 0.078431
0.862745 0.254902 0.137255
0.933333 0.321569 0.211765
0.964706 0.400000 0.301961
0.976471 0.462745 0.380392
0.992157 0.545098 0.478431
1.000000 0.603922 0.552941
1.000000 0.662745 0.615686
1.000000 0.717647 0.678431
1.000000 0.760784 0.729412
1.000000 0.803922 0.776471
1.000000 0.831373 0.807843
1.000000 0.870588 0.847059
1.000000 0.898039 0.878431
1.000000 0.913725 0.898039
1.000000 0.941176 0.925490
1.000000 0.956863 0.945098
1.000000 0.972549 0.960784
1.000000 0.984314 0.976471
1.000000 0.988235 0.984314
0.027451 0.054902 0.039216
0.050980 0.047059 0.031373
0.082353 0.043137 0.027451
0.121569 0.035294 0.019608
0.164706 0.031373 0.019608
0.203922 0.027451 0.019608
0.258824 0.027451 0.019608
0.321569 0.035294 0.015686
0.388235 0.043137 0.007843
0.454902 0.050980 0.003922
0.560784 0.082353 0.003922
0.650980 0.105882 0.000000
0.737255 0.137255 0.007843
0.807843 0.203922 0.078431
0.862745 0.254902 0.137255
0.933333 0.321569 0.211765
0.964706 0.400000 0.301961
0.976471 0.462745 0.380392
0.992157 0.545098 0.478431
1.000000 0.603922 0.552941
1.000000 0.662745 0.615686
1.000000 0.717647 0.678431
1.000000 0.760784 0.729412
1.000000 0.803922 0.776471
1.000000 0.831373 0.807843
1.000000 0.870588 0.847059
1.000000 0.898039 0.878431
1.000000 0.913725 0.898039
1.000000 0.941176 0.925490
1.000000 0.956863 0.945098
1.000000 0.972549 0.960784
1.000000 0.984314 0.976471
1.000000 0.988235 0.984314
0.019608 0.078431 0.039216
0.043137 0.074510 0.031373
0.074510 0.066667 0.023529
0.109804 0.062745 0.011765
0.160784 0.058824 0.011765
0.203922 0.054902 0.011765
0.258824 0.050980 0.011765
0.321569 0.050980 0.011765
0.388235 0.047059 0.007843
0.454902 0.050980 0.003922
0.560784 0.082353 0.003922
0.650980 0.105882 0.000000
0.737255 0.137255 0.007843
0.807843 0.203922 0.078431
0.862745 0.254902 0.137255
0.933333 0.321569 0.211765
0.964706 0.400000 0.301961
0.976471 0.462745 0.380392
0.992157 0.545098 0.478431
1.000000 0.603922 0.552941
1.000000 0.662745 0.615686
1.000000 0.717647 0.678431
1.000000 0.760784 0.729412
1.000000 0.803922 0.776471
1.000000 0.831373 0.807843
1.000000 0.870588 0.847059
1.000000 0.898039 0.878431
1.000000 0.913725 0.898039
1.000000 0.941176 0.925490
1.000000 0.956863 0.945098
1.000000 0.972549 0.960784
1.000000 0.984314 0.976471
1.000000 0.988235 0.984314
0.007843 0.105882 0.043137
0.031373 0.105882 0.035294
0.062745 0.101961 0.023529
0.098039 0.094118 0.007843
0.152941 0.090196 0.007843
0.200000 0.086275 0.003922
0.258824 0.082353 0.003922
0.321569 0.070588 0.003922
0.388235 0.058824 0.003922
0.454902 0.050980 0.003922
0.560784 0.082353 0.003922
0.650980 0.109804 0.000000
0.737255 0.137255 0.007843
0.807843 0.203922 0.078431
0.862745 0.254902 0.137255
0.933333 0.321569 0.211765
0.964706 0.400000 0.301961
0.976471 0.462745 0.380392
0.992157 0.545098 0.478431
1.000000 0.603922 0.552941
1.000000 0.662745 0.615686
1.000000 0.717647 0.678431
1.000000 0.760784 0.729412
1.000000 0.803922 0.776471
1.000000 0.831373 0.807843
1.000000 0.870588 0.847059
1.000000 0.898039 0.878431
1.000000 0.913725 0.898039
1.000000 0.941176 0.925490
1.000000 0.956863 0.945098
1.000000 0.972549 0.960784
1.000000 0.984314 0.976471
1.000000 0.988235 0.984314
0.003922 0.152941 0.066667
0.019608 0.149020 0.050980
0.039216 0.145098 0.031373
0.066667 0.141176 0.007843
0.129412 0.137255 0.007843
0.180392 0.133333 0.003922
0.247059 0.129412 0.003922
0.317647 0.121569 0.003922
0.384314 0.113725 0.003922
0.450980 0.109804 0.003922
0.560784 0.117647 0.000000
0.647059 0.125490 0.000000
0.737255 0.137255 0.007843
0.807843 0.203922 0.078431
0.862745 0.254902 0.137255
0.933333 0.321569 0.211765
0.964706 0.396078 0.301961
0.976471 0.462745 0.380392
0.988235 0.545098 0.478431
1.000000 0.603922 0.552941
1.000000 0.658824 0.615686
1.000000 0.717647 0.678431
1.000000 0.760784 0.729412
1.000000 0.803922 0.776471
1.000000 0.831373 0.807843
1.000000 0.870588 0.847059
1.000000 0.898039 0.878431
1.000000 0.913725 0.898039
1.000000 0.941176 0.925490
1.000000 0.956863 0.945098
1.000000 0.972549 0.960784
1.000000 0.984314 0.976471
1.000000 0.988235 0.984314
0.003922 0.188235 0.086275
0.011765 0.188235 0.062745
0.023529 0.184314 0.039216
0.039216 0.180392 0.007843
0.109804 0.176471 0.007843
0.168627 0.172549 0.003922
0.239216 0.168627 0.000000
0.309804 0.164706 0.000000
0.380392 0.160784 0.000000
0.450980 0.156863 0.000000
0.556863 0.149020 0.000000
0.647059 0.137255 0.000000
0.737255 0.137255 0.007843
0.807843 0.203922 0.078431
0.862745 0.254902 0.137255
0.933333 0.321569 0.211765
0.964706 0.396078 0.301961
0.976471 0.462745 0.380392
0.988235 0.541176 0.478431
1.000000 0.603922 0.552941
1.000000 0.658824 0.615686
1.000000 0.717647 0.678431
1.000000 0.760784 0.729412
1.000000 0.803922 0.776471
1.000000 0.831373 0.807843
1.000000 0.866667 0.847059
1.000000 0.898039 0.878431
1.000000 0.913725 0.898039
1.000000 0.941176 0.925490
1.000000 0.956863 0.945098
1.000000 0.972549 0.960784
1.000000 0.984314 0.976471
1.000000 0.988235 0.984314
0.000000 0.239216 0.109804
0.003922 0.239216 0.086275
0.007843 0.235294 0.054902
0.015686 0.235294 0.023529
0.086275 0.231373 0.015686
0.149020 0.227451 0.007843
0.223529 0.223529 0.000000
0.298039 0.223529 0.000000
0.372549 0.219608 0.000000
0.447059 0.219608 0.000000
0.552941 0.192157 0.000000
0.643137 0.168627 0.000000
0.733333 0.156863 0.007843
0.803922 0.215686 0.078431
0.862745 0.262745 0.137255
0.933333 0.321569 0.211765
0.964706 0.396078 0.301961
0.976471 0.462745 0.380392
0.988235 0.541176 0.478431
1.000000 0.603922 0.552941
1.000000 0.658824 0.615686
1.000000 0.717647 0.678431
1.000000 0.760784 0.729412
1.000000 0.803922 0.776471
1.000000 0.831373 0.807843
1.000000 0.866667 0.847059
1.000000 0.898039 0.878431
1.000000 0.913725 0.898039
1.000000 0.941176 0.925490
1.000000 0.956863 0.945098
1.000000 0.972549 0.960784
1.000000 0.984314 0.976471
1.000000 0.988235 0.984314
0.000000 0.298039 0.133333
0.003922 0.298039 0.117647
0.003922 0.294118 0.098039
0.007843 0.294118 0.074510
0.070588 0.290196 0.047059
0.121569 0.290196 0.023529
0.192157 0.286275 0.000000
0.274510 0.286275 0.000000
0.352941 0.282353 0.000000
0.435294 0.278431 0.000000
0.545098 0.254902 0.000000
0.635294 0.239216 0.000000
0.725490 0.227451 0.007843
0.800000 0.262745 0.078431
0.858824 0.290196 0.137255
0.933333 0.329412 0.207843
0.964706 0.396078 0.301961
0.976471 0.462745 0.380392
0.988235 0.541176 0.478431
1.000000 0.603922 0.552941
1.000000 0.658824 0.615686
1.000000 0.717647 0.678431
1.000000 0.760784 0.729412
1.000000 0.803922 0.776471
1.000000 0.831373 0.807843
1.000000 0.866667 0.847059
1.000000 0.898039 0.878431
1.000000 0.913725 0.898039
1.000000 0.941176 0.925490
1.000000 0.956863 0.945098
1.000000 0.972549 0.960784
1.000000 0.984314 0.976471
1.000000 0.988235 0.984314
0.000000 0.356863 0.160784
0.000000 0.356863 0.152941
0.003922 0.356863 0.141176
0.003922 0.356863 0.129412
0.054902 0.352941 0.078431
0.098039 0.352941 0.039216
0.160784 0.349020 0.000000
0.247059 0.345098 0.000000
0.333333 0.341176 0.000000
0.423529 0.337255 0.000000
0.533333 0.321569 0.000000
0.627451 0.309804 0.000000
0.717647 0.298039 0.007843
0.792157 0.309804 0.078431
0.854902 0.321569 0.137255
0.929412 0.333333 0.207843
0.964706 0.396078 0.298039
0.976471 0.462745 0.376471
0.988235 0.541176 0.478431
1.000000 0.603922 0.552941
1.000000 0.658824 0.615686
1.000000 0.717647 0.678431
1.000000 0.760784 0.729412
1.000000 0.803922 0.776471
1.000000 0.831373 0.807843
1.000000 0.866667 0.847059
1.000000 0.898039 0.878431
1.000000 0.913725 0.898039
1.000000 0.941176 0.925490
1.000000 0.956863 0.945098
1.000000 0.972549 0.960784
1.000000 0.984314 0.976471
1.000000 0.988235 0.984314
0.000000 0.419608 0.184314
0.000000 0.419608 0.184314
0.000000 0.415686 0.184314
0.000000 0.415686 0.180392
0.039216 0.415686 0.113725
0.074510 0.415686 0.058824
0.129412 0.411765 0.007843
0.223529 0.407843 0.003922
0.313725 0.403922 0.000000
0.407843 0.400000 0.000000
0.521569 0.388235 0.000000
0.615686 0.376471 0.000000
0.709804 0.368627 0.007843
0.788235 0.360784 0.078431
0.850980 0.352941 0.137255
0.929412 0.345098 0.207843
0.960784 0.400000 0.298039
0.976471 0.462745 0.376471
0.988235 0.541176 0.474510
1.000000 0.603922 0.552941
1.000000 0.658824 0.615686
1.000000 0.717647 0.678431
1.000000 0.760784 0.729412
1.000000 0.803922 0.776471
1.000000 0.831373 0.807843
1.000000 0.866667 0.847059
1.000000 0.898039 0.878431
1.000000 0.913725 0.898039
1.000000 0.941176 0.925490
1.000000 0.956863 0.945098
1.000000 0.972549 0.960784
1.000000 0.984314 0.976471
1.000000 0.988235 0.984314
0.000000 0.509804 0.219608
0.000000 0.509804 0.219608
0.000000 0.505882 0.215686
0.000000 0.505882 0.215686
0.023529 0.505882 0.172549
0.047059 0.505882 0.137255
0.086275 0.505882 0.098039
0.176471 0.501961 0.062745
0.266667 0.498039 0.031373
0.356863 0.494118 0.000000
0.478431 0.482353 0.000000
0.580392 0.474510 0.000000
0.682353 0.462745 0.007843
0.764706 0.450980 0.078431
0.831373 0.439216 0.137255
0.909804 0.423529 0.211765
0.949020 0.458824 0.301961
0.964706 0.501961 0.380392
0.984314 0.560784 0.474510
1.000000 0.603922 0.549020
1.000000 0.658824 0.615686
1.000000 0.717647 0.678431
1.000000 0.760784 0.729412
1.000000 0.803922 0.776471
1.000000 0.831373 0.807843
1.000000 0.866667 0.847059
1.000000 0.898039 0.878431
1.000000 0.913725 0.898039
1.000000 0.941176 0.925490
1.000000 0.956863 0.945098
1.000000 0.972549 0.960784
1.000000 0.984314 0.976471
1.000000 0.988235 0.984314
0.000000 0.584314 0.247059
0.000000 0.584314 0.247059
0.000000 0.584314 0.243137
0.000000 0.584314 0.243137
0.011765 0.584314 0.223529
0.019608 0.580392 0.203922
0.050980 0.580392 0.172549
0.137255 0.580392 0.113725
0.223529 0.576471 0.054902
0.313725 0.572549 0.000000
0.443137 0.564706 0.000000
0.552941 0.552941 0.000000
0.662745 0.545098 0.007843
0.745098 0.525490 0.078431
0.811765 0.509804 0.137255
0.898039 0.490196 0.211765
0.937255 0.509804 0.301961
0.956863 0.537255 0.380392
0.984314 0.572549 0.474510
1.000000 0.603922 0.549020
1.000000 0.658824 0.611765
1.000000 0.713725 0.678431
1.000000 0.760784 0.729412
1.000000 0.803922 0.776471
1.000000 0.831373 0.807843
1.000000 0.866667 0.847059
1.000000 0.894118 0.878431
1.000000 0.913725 0.898039
1.000000 0.941176 0.925490
1.000000 0.956863 0.945098
1.000000 0.972549 0.960784
1.000000 0.984314 0.976471
1.000000 0.988235 0.984314
0.000000 0.658824 0.270588
0.000000 0.658824 0.270588
0.000000 0.658824 0.270588
0.000000 0.654902 0.270588
0.000000 0.654902 0.266667
0.000000 0.654902 0.266667
0.019608 0.654902 0.243137
0.101961 0.654902 0.164706
0.180392 0.654902 0.082353
0.266667 0.650980 0.007843
0.403922 0.639216 0.003922
0.521569 0.631373 0.003922
0.635294 0.623529 0.007843
0.721569 0.600000 0.082353
0.792157 0.580392 0.141176
0.878431 0.556863 0.215686
0.925490 0.560784 0.305882
0.949020 0.572549 0.380392
0.980392 0.588235 0.478431
1.000000 0.603922 0.549020
1.000000 0.662745 0.611765
1.000000 0.717647 0.678431
1.000000 0.760784 0.729412
1.000000 0.803922 0.776471
1.000000 0.831373 0.807843
1.000000 0.866667 0.847059
1.000000 0.894118 0.878431
1.000000 0.913725 0.898039
1.000000 0.941176 0.925490
1.000000 0.956863 0.945098
1.000000 0.972549 0.960784
1.000000 0.984314 0.976471
1.000000 0.988235 0.984314
0.000000 0.713725 0.278431
0.000000 0.713725 0.278431
0.000000 0.713725 0.278431
0.000000 0.713725 0.274510
0.000000 0.713725 0.274510
0.000000 0.713725 0.274510
0.015686 0.713725 0.258824
0.070588 0.713725 0.203922
0.121569 0.709804 0.149020
0.184314 0.709804 0.098039
0.329412 0.701961 0.066667
0.450980 0.694118 0.043137
0.572549 0.686275 0.027451
0.666667 0.666667 0.105882
0.745098 0.650980 0.164706
0.843137 0.631373 0.239216
0.901961 0.631373 0.325490
0.933333 0.631373 0.396078
0.972549 0.635294 0.486275
1.000000 0.643137 0.556863
1.000000 0.686275 0.615686
1.000000 0.729412 0.678431
1.000000 0.764706 0.729412
1.000000 0.803922 0.772549
1.000000 0.831373 0.807843
1.000000 0.866667 0.847059
1.000000 0.894118 0.878431
1.000000 0.913725 0.898039
1.000000 0.941176 0.925490
1.000000 0.956863 0.945098
1.000000 0.972549 0.960784
1.000000 0.984314 0.976471
1.000000 0.988235 0.984314
0.000000 0.760784 0.282353
0.000000 0.760784 0.282353
0.000000 0.760784 0.282353
0.000000 0.760784 0.282353
0.000000 0.760784 0.282353
0.000000 0.760784 0.278431
0.007843 0.760784 0.270588
0.043137 0.760784 0.235294
0.074510 0.760784 0.203922
0.117647 0.756863 0.168627
0.266667 0.752941 0.117647
0.396078 0.745098 0.078431
0.517647 0.741176 0.047059
0.623529 0.725490 0.121569
0.709804 0.709804 0.180392
0.815686 0.694118 0.258824
0.878431 0.686275 0.341176
0.917647 0.682353 0.407843
0.964706 0.674510 0.494118
1.000000 0.674510 0.560784
1.000000 0.709804 0.619608
1.000000 0.741176 0.678431
1.000000 0.764706 0.729412
1.000000 0.800000 0.772549
1.000000 0.831373 0.807843
1.000000 0.866667 0.847059
1.000000 0.894118 0.878431
1.000000 0.913725 0.898039
1.000000 0.941176 0.925490
1.000000 0.956863 0.945098
1.000000 0.972549 0.960784
1.000000 0.984314 0.976471
1.000000 0.988235 0.984314
0.000000 0.819608 0.286275
0.000000 0.819608 0.286275
0.000000 0.819608 0.286275
0.000000 0.819608 0.286275
0.000000 0.819608 0.286275
0.000000 0.819608 0.286275
0.003922 0.819608 0.286275
0.007843 0.819608 0.278431
0.015686 0.815686 0.270588
0.035294 0.815686 0.254902
0.192157 0.811765 0.180392
0.325490 0.811765 0.117647
0.454902 0.807843 0.066667
0.572549 0.792157 0.141176
0.662745 0.784314 0.203922
0.780392 0.768627 0.282353
0.854902 0.752941 0.360784
0.901961 0.741176 0.423529
0.960784 0.725490 0.501961
1.000000 0.713725 0.564706
1.000000 0.733333 0.623529
1.000000 0.752941 0.682353
1.000000 0.768627 0.729412
1.000000 0.800000 0.772549
1.000000 0.831373 0.807843
1.000000 0.866667 0.847059
1.000000 0.894118 0.878431
1.000000 0.913725 0.898039
1.000000 0.937255 0.925490
1.000000 0.956863 0.945098
1.000000 0.972549 0.960784
1.000000 0.984314 0.976471
1.000000 0.988235 0.984314
0.086275 0.862745 0.329412
0.086275 0.862745 0.329412
0.086275 0.862745 0.329412
0.086275 0.862745 0.329412
0.086275 0.862745 0.329412
0.086275 0.862745 0.329412
0.086275 0.862745 0.329412
0.086275 0.862745 0.329412
0.086275 0.858824 0.329412
0.094118 0.858824 0.325490
0.219608 0.858824 0.258824
0.321569 0.854902 0.203922
0.427451 0.854902 0.160784
0.537255 0.843137 0.223529
0.627451 0.835294 0.274510
0.737255 0.823529 0.337255
0.815686 0.807843 0.403922
0.870588 0.792157 0.458824
0.933333 0.776471 0.525490
0.980392 0.764706 0.580392
0.988235 0.772549 0.631373
0.992157 0.780392 0.686275
1.000000 0.788235 0.733333
1.000000 0.815686 0.776471
1.000000 0.839216 0.807843
1.000000 0.870588 0.847059
1.000000 0.894118 0.878431
1.000000 0.913725 0.898039
1.000000 0.937255 0.925490
1.000000 0.956863 0.945098
1.000000 0.972549 0.960784
1.000000 0.980392 0.976471
1.000000 0.988235 0.984314
0.184314 0.890196 0.376471
0.184314 0.890196 0.376471
0.184314 0.890196 0.376471
0.184314 0.890196 0.376471
0.184314 0.890196 0.376471
0.184314 0.890196 0.376471
0.184314 0.890196 0.376471
0.184314 0.890196 0.376471
0.184314 0.890196 0.376471
0.188235 0.890196 0.372549
0.274510 0.886275 0.329412
0.345098 0.886275 0.290196
0.415686 0.886275 0.258824
0.517647 0.874510 0.309804
0.600000 0.866667 0.345098
0.701961 0.858824 0.396078
0.780392 0.843137 0.447059
0.839216 0.831373 0.494118
0.909804 0.815686 0.549020
0.960784 0.807843 0.592157
0.972549 0.807843 0.643137
0.984314 0.811765 0.694118
0.996078 0.811765 0.737255
1.000000 0.831373 0.776471
1.000000 0.850980 0.807843
1.000000 0.874510 0.847059
1.000000 0.894118 0.878431
1.000000 0.913725 0.898039
1.000000 0.937255 0.925490
1.000000 0.956863 0.945098
1.000000 0.972549 0.960784
1.000000 0.980392 0.976471
1.000000 0.988235 0.984314
0.309804 0.925490 0.435294
0.309804 0.925490 0.435294
0.309804 0.925490 0.435294
0.309804 0.925490 0.435294
0.305882 0.925490 0.435294
0.305882 0.925490 0.435294
0.305882 0.925490 0.435294
0.305882 0.925490 0.435294
0.305882 0.925490 0.435294
0.309804 0.925490 0.435294
0.341176 0.925490 0.415686
0.368627 0.925490 0.400000
0.403922 0.925490 0.388235
0.494118 0.917647 0.415686
0.564706 0.909804 0.439216
0.654902 0.901961 0.466667
0.737255 0.894118 0.501961
0.800000 0.882353 0.537255
0.878431 0.870588 0.576471
0.933333 0.862745 0.607843
0.956863 0.854902 0.654902
0.976471 0.847059 0.701961
0.992157 0.839216 0.741176
1.000000 0.850980 0.780392
1.000000 0.862745 0.811765
1.000000 0.878431 0.847059
1.000000 0.894118 0.878431
1.000000 0.913725 0.898039
1.000000 0.937255 0.925490
1.000000 0.956863 0.945098
1.000000 0.972549 0.960784
1.000000 0.980392 0.976471
1.000000 0.988235 0.984314
0.403922 0.952941 0.486275
0.403922 0.952941 0.486275
0.403922 0.952941 0.486275
0.403922 0.952941 0.486275
0.400000 0.952941 0.486275
0.400000 0.952941 0.486275
0.400000 0.952941 0.486275
0.400000 0.952941 0.486275
0.400000 0.952941 0.482353
0.400000 0.952941 0.482353
0.400000 0.952941 0.482353
0.396078 0.952941 0.482353
0.403922 0.952941 0.482353
0.482353 0.945098 0.498039
0.549020 0.941176 0.505882
0.627451 0.937255 0.521569
0.705882 0.929412 0.545098
0.772549 0.921569 0.568627
0.854902 0.909804 0.600000
0.913725 0.901961 0.623529
0.941176 0.886275 0.666667
0.968627 0.874510 0.709804
0.992157 0.862745 0.745098
1.000000 0.866667 0.784314
1.000000 0.874510 0.811765
1.000000 0.886275 0.850980
1.000000 0.898039 0.878431
1.000000 0.913725 0.898039
1.000000 0.941176 0.925490
1.000000 0.956863 0.945098
1.000000 0.972549 0.960784
1.000000 0.980392 0.976471
1.000000 0.988235 0.984314
0.490196 0.968627 0.556863
0.490196 0.968627 0.556863
0.490196 0.968627 0.556863
0.490196 0.968627 0.556863
0.490196 0.968627 0.556863
0.490196 0.968627 0.556863
0.490196 0.968627 0.556863
0.490196 0.968627 0.556863
0.490196 0.968627 0.556863
0.490196 0.968627 0.556863
0.486275 0.968627 0.556863
0.486275 0.968627 0.556863
0.490196 0.968627 0.556863
0.545098 0.964706 0.564706
0.588235 0.960784 0.572549
0.639216 0.956863 0.580392
0.705882 0.952941 0.600000
0.760784 0.945098 0.619608
0.827451 0.937255 0.643137
0.878431 0.933333 0.662745
0.917647 0.921569 0.698039
0.952941 0.909804 0.733333
0.984314 0.898039 0.760784
0.996078 0.898039 0.792157
0.996078 0.901961 0.819608
1.000000 0.905882 0.854902
1.000000 0.913725 0.878431
1.000000 0.925490 0.898039
1.000000 0.945098 0.925490
1.000000 0.960784 0.945098
1.000000 0.972549 0.960784
1.000000 0.980392 0.976471
1.000000 0.988235 0.984314
0.580392 0.984314 0.631373
0.580392 0.984314 0.631373
0.580392 0.984314 0.631373
0.580392 0.984314 0.631373
0.580392 0.984314 0.631373
0.580392 0.984314 0.631373
0.580392 0.984314 0.631373
0.580392 0.984314 0.631373
0.576471 0.984314 0.631373
0.576471 0.984314 0.631373
0.576471 0.984314 0.631373
0.576471 0.984314 0.631373
0.580392 0.984314 0.631373
0.607843 0.980392 0.635294
0.627451 0.980392 0.639216
0.654902 0.976471 0.643137
0.701961 0.976471 0.654902
0.749020 0.972549 0.666667
0.803922 0.968627 0.682353
0.847059 0.964706 0.698039
0.894118 0.952941 0.725490
0.941176 0.945098 0.752941
0.976471 0.937255 0.772549
0.992157 0.933333 0.803922
0.996078 0.929412 0.827451
0.996078 0.925490 0.858824
1.000000 0.929412 0.882353
1.000000 0.937255 0.901961
1.000000 0.952941 0.925490
1.000000 0.964706 0.945098
1.000000 0.972549 0.960784
1.000000 0.980392 0.976471
1.000000 0.988235 0.984314
0.650980 0.996078 0.690196
0.650980 0.996078 0.690196
0.650980 0.996078 0.690196
0.650980 0.996078 0.690196
0.650980 0.996078 0.690196
0.650980 0.996078 0.690196
0.650980 0.996078 0.690196
0.650980 0.996078 0.690196
0.647059 0.996078 0.690196
0.647059 0.996078 0.690196
0.647059 0.996078 0.690196
0.647059 0.996078 0.690196
0.647059 0.996078 0.690196
0.654902 0.996078 0.690196
0.658824 0.996078 0.690196
0.666667 0.996078 0.690196
0.701961 0.992157 0.698039
0.737255 0.992157 0.705882
0.784314 0.992157 0.717647
0.823529 0.988235 0.725490
0.874510 0.980392 0.749020
0.929412 0.972549 0.768627
0.968627 0.964706 0.784314
0.988235 0.956863 0.811765
0.992157 0.952941 0.831373
0.996078 0.945098 0.862745
1.000000 0.941176 0.882353
1.000000 0.949020 0.901961
1.000000 0.956863 0.925490
1.000000 0.964706 0.945098
1.000000 0.972549 0.960784
1.000000 0.980392 0.976471
1.000000 0.988235 0.984314
0.709804 1.000000 0.741176
0.709804 1.000000 0.741176
0.709804 1.000000 0.741176
0.709804 1.000000 0.741176
0.709804 1.000000 0.741176
0.709804 1.000000 0.741176
0.709804 1.000000 0.741176
0.709804 1.000000 0.741176
0.709804 1.000000 0.741176
0.709804 1.000000 0.741176
0.709804 1.000000 0.741176
0.709804 1.000000 0.741176
0.709804 1.000000 0.741176
0.705882 1.000000 0.741176
0.705882 1.000000 0.741176
0.705882 1.000000 0.741176
0.729412 1.000000 0.745098
0.756863 1.000000 0.749020
0.788235 1.000000 0.756863
0.815686 1.000000 0.760784
0.866667 0.992157 0.776471
0.913725 0.984314 0.792157
0.952941 0.980392 0.803922
0.976471 0.972549 0.827451
0.984314 0.968627 0.847059
0.992157 0.960784 0.870588
1.000000 0.956863 0.890196
1.000000 0.960784 0.905882
1.000000 0.968627 0.929412
1.000000 0.972549 0.949020
1.000000 0.980392 0.960784
1.000000 0.984314 0.976471
1.000000 0.992157 0.988235
0.749020 1.000000 0.776471
0.749020 1.000000 0.776471
0.749020 1.000000 0.776471
0.749020 1.000000 0.776471
0.749020 1.000000 0.776471
0.749020 1.000000 0.776471
0.749020 1.000000 0.776471
0.749020 1.000000 0.776471
0.749020 1.000000 0.776471
0.749020 1.000000 0.776471
0.749020 1.000000 0.776471
0.749020 1.000000 0.776471
0.749020 1.000000 0.776471
0.749020 1.000000 0.776471
0.745098 1.000000 0.776471
0.745098 1.000000 0.776471
0.760784 1.000000 0.780392
0.780392 1.000000 0.784314
0.803922 1.000000 0.788235
0.823529 1.000000 0.792157
0.862745 0.996078 0.803922
0.905882 0.992157 0.815686
0.937255 0.988235 0.823529
0.960784 0.984314 0.843137
0.972549 0.980392 0.858824
0.988235 0.972549 0.878431
1.000000 0.972549 0.894118
1.000000 0.972549 0.913725
1.000000 0.976471 0.933333
1.000000 0.980392 0.949020
1.000000 0.984314 0.964706
1.000000 0.992157 0.976471
1.000000 0.996078 0.988235
0.800000 1.000000 0.823529
0.800000 1.000000 0.823529
0.800000 1.000000 0.823529
0.800000 1.000000 0.823529
0.800000 1.000000 0.823529
0.800000 1.000000 0.823529
0.796078 1.000000 0.823529
0.796078 1.000000 0.823529
0.796078 1.000000 0.823529
0.796078 1.000000 0.823529
0.796078 1.000000 0.823529
0.796078 1.000000 0.823529
0.796078 1.000000 0.823529
0.796078 1.000000 0.823529
0.796078 1.000000 0.823529
0.796078 1.000000 0.823529
0.803922 1.000000 0.823529
0.807843 1.000000 0.823529
0.819608 1.000000 0.827451
0.827451 1.000000 0.827451
0.858824 0.996078 0.835294
0.890196 0.996078 0.843137
0.917647 0.996078 0.850980
0.945098 0.992157 0.862745
0.960784 0.992157 0.874510
0.984314 0.988235 0.890196
1.000000 0.988235 0.901961
1.000000 0.988235 0.917647
1.000000 0.992157 0.937255
1.000000 0.992157 0.952941
1.000000 0.996078 0.964706
1.000000 0.996078 0.976471
1.000000 0.996078 0.988235
0.835294 1.000000 0.854902
0.835294 1.000000 0.854902
0.835294 1.000000 0.854902
0.835294 1.000000 0.854902
0.835294 1.000000 0.854902
0.835294 1.000000 0.854902
0.835294 1.000000 0.854902
0.835294 1.000000 0.854902
0.835294 1.000000 0.854902
0.835294 1.000000 0.854902
0.835294 1.000000 0.854902
0.835294 1.000000 0.854902
0.835294 1.000000 0.854902
0.835294 1.000000 0.854902
0.835294 1.000000 0.854902
0.835294 1.000000 0.854902
0.835294 1.000000 0.854902
0.835294 1.000000 0.854902
0.831373 1.000000 0.854902
0.835294 1.000000 0.854902
0.858824 1.000000 0.858824
0.886275 1.000000 0.866667
0.905882 1.000000 0.870588
0.933333 1.000000 0.878431
