assets/lut/poo.CUBE
#Created by www.Photopea.com
TITLE "Screenshot from 2026-03-19 16-21-12.png"
#LUT size
LUT_3D_SIZE 9
#data domain
DOMAIN_MIN 0.0 0.0 0.0
DOMAIN_MAX 1.0 1.0 1.0
#LUT data points
0.035294 0.035294 0.035294
0.168627 0.011765 0.023529
0.388235 0.035294 0.011765
0.737255 0.137255 0.007843
0.964706 0.400000 0.301961
1.000000 0.662745 0.615686
1.000000 0.831373 0.807843
1.000000 0.941176 0.925490
1.000000 0.988235 0.984314
0.003922 0.152941 0.066667
0.129412 0.137255 0.007843
0.384314 0.113725 0.003922
0.737255 0.137255 0.007843
0.964706 0.396078 0.301961
1.000000 0.658824 0.615686
1.000000 0.831373 0.807843
1.000000 0.941176 0.925490
1.000000 0.988235 0.984314
0.000000 0.356863 0.160784
0.054902 0.352941 0.078431
0.333333 0.341176 0.000000
0.717647 0.298039 0.007843
0.964706 0.396078 0.298039
1.000000 0.658824 0.615686
1.000000 0.831373 0.807843
1.000000 0.941176 0.925490
1.000000 0.988235 0.984314
0.000000 0.658824 0.270588
0.000000 0.654902 0.266667
0.180392 0.654902 0.082353
0.635294 0.623529 0.007843
0.925490 0.560784 0.305882
1.000000 0.662745 0.611765
1.000000 0.831373 0.807843
1.000000 0.941176 0.925490
1.000000 0.988235 0.984314
0.086275 0.862745 0.329412
0.086275 0.862745 0.329412
0.086275 0.858824 0.329412
0.427451 0.854902 0.160784
0.815686 0.807843 0.403922
0.988235 0.772549 0.631373
1.000000 0.839216 0.807843
1.000000 0.937255 0.925490
1.000000 0.988235 0.984314
0.490196 0.968627 0.556863
0.490196 0.968627 0.556863
0.490196 0.968627 0.556863
0.490196 0.968627 0.556863
0.705882 0.952941 0.600000
0.917647 0.921569 0.698039
0.996078 0.901961 0.819608
1.000000 0.945098 0.925490
1.000000 0.988235 0.984314
0.749020 1.000000 0.776471
0.749020 1.000000 0.776471
0.749020 1.000000 0.776471
0.749020 1.000000 0.776471
0.760784 1.000000 0.780392
0.862745 0.996078 0.803922
0.972549 0.980392 0.858824
1.000000 0.976471 0.933333
1.000000 0.996078 0.988235
0.890196 1.000000 0.905882
0.890196 1.000000 0.905882
0.890196 1.000000 0.905882
0.890196 1.000000 0.905882
0.890196 1.000000 0.905882
0.898039 1.000000 0.909804
0.952941 1.000000 0.921569
0.996078 1.000000 0.956863
1.000000 1.000000 0.992157
0.972549 1.000000 0.980392
0.972549 1.000000 0.980392
0.972549 1.000000 0.980392
0.972549 1.000000 0.980392
0.972549 1.000000 0.980392
0.972549 1.000000 0.980392
0.980392 1.000000 0.984314
0.996078 1.000000 0.988235
1.000000 1.000000 0.996078
0.023529 0.035294 0.149020
0.172549 0.007843 0.145098
0.384314 0.000000 0.133333
0.733333 0.086275 0.058824
0.964706 0.400000 0.301961
1.000000 0.662745 0.615686
1.000000 0.831373 0.807843
1.000000 0.941176 0.925490
1.000000 0.988235 0.984314
0.003922 0.160784 0.156863
0.125490 0.121569 0.129412
0.384314 0.066667 0.101961
0.733333 0.086275 0.058824
0.964706 0.400000 0.301961
1.000000 0.662745 0.615686
1.000000 0.831373 0.807843
1.000000 0.941176 0.925490
1.000000 0.988235 0.984314
0.000000 0.360784 0.227451
0.031373 0.349020 0.164706
0.313725 0.325490 0.039216
0.717647 0.274510 0.023529
0.964706 0.396078 0.298039
1.000000 0.658824 0.615686
1.000000 0.831373 0.807843
1.000000 0.941176 0.925490
1.000000 0.988235 0.984314
0.000000 0.654902 0.317647
0.000000 0.650980 0.317647
0.141176 0.650980 0.098039
0.631373 0.619608 0.007843
0.925490 0.560784 0.305882
1.000000 0.662745 0.611765
1.000000 0.831373 0.807843
1.000000 0.941176 0.925490
1.000000 0.988235 0.984314
0.086275 0.858824 0.352941
0.086275 0.858824 0.352941
0.086275 0.858824 0.345098
0.423529 0.854902 0.152941
0.815686 0.807843 0.403922
0.988235 0.772549 0.635294
1.000000 0.839216 0.807843
1.000000 0.937255 0.925490
1.000000 0.988235 0.984314
0.486275 0.968627 0.556863
0.486275 0.968627 0.556863
0.486275 0.968627 0.556863
0.490196 0.968627 0.556863
0.705882 0.952941 0.600000
0.917647 0.921569 0.698039
0.996078 0.901961 0.819608
1.000000 0.945098 0.925490
1.000000 0.988235 0.984314
0.749020 1.000000 0.776471
0.749020 1.000000 0.776471
0.749020 1.000000 0.776471
0.749020 1.000000 0.776471
0.760784 1.000000 0.780392
0.862745 0.996078 0.803922
0.972549 0.980392 0.858824
1.000000 0.976471 0.933333
1.000000 0.996078 0.988235
0.890196 1.000000 0.905882
0.890196 1.000000 0.905882
0.890196 1.000000 0.905882
0.890196 1.000000 0.905882
0.890196 1.000000 0.905882
0.898039 1.000000 0.909804
0.952941 1.000000 0.921569
0.996078 1.000000 0.956863
1.000000 1.000000 0.992157
0.972549 1.000000 0.980392
0.972549 1.000000 0.980392
0.972549 1.000000 0.980392
0.972549 1.000000 0.980392
0.972549 1.000000 0.980392
0.972549 1.000000 0.980392
0.980392 1.000000 0.984314
0.996078 1.000000 0.988235
1.000000 1.000000 0.996078
0.015686 0.074510 0.333333
0.180392 0.035294 0.337255
0.400000 0.003922 0.341176
0.733333 0.007843 0.313725
0.976471 0.333333 0.337255
1.000000 0.662745 0.615686
1.000000 0.831373 0.807843
1.000000 0.941176 0.925490
1.000000 0.988235 0.984314
0.000000 0.196078 0.333333
0.101961 0.133333 0.349020
0.392157 0.047059 0.341176
0.729412 0.007843 0.313725
0.976471 0.333333 0.337255
1.000000 0.662745 0.615686
1.000000 0.831373 0.807843
1.000000 0.941176 0.925490
1.000000 0.988235 0.984314
0.000000 0.376471 0.368627
0.019608 0.360784 0.356863
0.301961 0.301961 0.305882
0.737255 0.196078 0.250980
0.972549 0.333333 0.333333
1.000000 0.658824 0.615686
1.000000 0.831373 0.807843
1.000000 0.941176 0.925490
1.000000 0.988235 0.984314
0.000000 0.654902 0.443137
0.000000 0.654902 0.443137
0.027451 0.647059 0.309804
0.619608 0.607843 0.121569
0.933333 0.545098 0.305882
1.000000 0.662745 0.615686
1.000000 0.831373 0.807843
1.000000 0.941176 0.925490
1.000000 0.988235 0.984314
0.062745 0.854902 0.439216
0.062745 0.854902 0.439216
0.062745 0.854902 0.435294
0.341176 0.854902 0.121569
0.815686 0.803922 0.400000
0.988235 0.772549 0.635294
1.000000 0.839216 0.807843
1.000000 0.937255 0.925490
1.000000 0.988235 0.984314
0.423529 0.968627 0.552941
0.423529 0.968627 0.552941
0.423529 0.968627 0.552941
0.439216 0.968627 0.549020
0.701961 0.952941 0.600000
0.917647 0.921569 0.698039
0.996078 0.901961 0.819608
1.000000 0.945098 0.925490
1.000000 0.988235 0.984314
0.745098 1.000000 0.776471
0.745098 1.000000 0.776471
0.745098 1.000000 0.776471
0.745098 1.000000 0.776471
0.760784 1.000000 0.780392
0.862745 0.996078 0.803922
0.972549 0.980392 0.858824
1.000000 0.976471 0.933333
1.000000 0.996078 0.988235
0.890196 1.000000 0.905882
0.890196 1.000000 0.905882
0.890196 1.000000 0.905882
0.890196 1.000000 0.905882
0.890196 1.000000 0.905882
0.898039 1.000000 0.909804
0.952941 1.000000 0.921569
0.996078 1.000000 0.956863
1.000000 1.000000 0.992157
0.972549 1.000000 0.980392
0.972549 1.000000 0.980392
0.972549 1.000000 0.980392
0.972549 1.000000 0.980392
0.972549 1.000000 0.980392
0.972549 1.000000 0.980392
0.980392 1.000000 0.984314
0.996078 1.000000 0.988235
1.000000 1.000000 0.996078
0.027451 0.172549 0.631373
0.200000 0.156863 0.631373
0.427451 0.121569 0.635294
0.741176 0.086275 0.639216
0.960784 0.364706 0.592157
1.000000 0.631373 0.643137
1.000000 0.831373 0.807843
1.000000 0.941176 0.925490
1.000000 0.988235 0.984314
0.007843 0.250980 0.615686
0.101961 0.207843 0.639216
0.392157 0.141176 0.650980
0.741176 0.086275 0.639216
0.960784 0.364706 0.592157
1.000000 0.631373 0.643137
1.000000 0.831373 0.807843
1.000000 0.941176 0.925490
1.000000 0.988235 0.984314
0.000000 0.423529 0.615686
0.011765 0.396078 0.627451
0.266667 0.321569 0.658824
0.733333 0.200000 0.639216
0.960784 0.360784 0.592157
1.000000 0.631373 0.639216
1.000000 0.831373 0.807843
1.000000 0.941176 0.925490
1.000000 0.988235 0.984314
0.000000 0.666667 0.650980
0.000000 0.662745 0.647059
0.000000 0.650980 0.635294
0.596078 0.600000 0.600000
0.921569 0.537255 0.564706
1.000000 0.635294 0.639216
1.000000 0.831373 0.807843
1.000000 0.941176 0.925490
1.000000 0.988235 0.984314
0.011765 0.858824 0.615686
0.011765 0.858824 0.615686
0.011765 0.854902 0.611765
0.290196 0.847059 0.545098
0.796078 0.796078 0.521569
0.988235 0.760784 0.635294
1.000000 0.839216 0.807843
1.000000 0.937255 0.925490
1.000000 0.988235 0.984314
0.258824 0.968627 0.603922
0.258824 0.968627 0.603922
0.258824 0.968627 0.603922
0.262745 0.968627 0.600000
0.662745 0.952941 0.588235
0.913725 0.917647 0.694118
0.996078 0.901961 0.819608
1.000000 0.945098 0.925490
1.000000 0.988235 0.984314
0.725490 1.000000 0.772549
0.725490 1.000000 0.772549
0.725490 1.000000 0.772549
0.725490 1.000000 0.772549
0.745098 1.000000 0.776471
0.862745 0.996078 0.803922
0.972549 0.980392 0.858824
1.000000 0.976471 0.933333
1.000000 0.996078 0.988235
0.886275 1.000000 0.905882
0.886275 1.000000 0.905882
0.886275 1.000000 0.905882
0.886275 1.000000 0.905882
0.890196 1.000000 0.905882
0.898039 1.000000 0.909804
0.952941 1.000000 0.921569
0.996078 1.000000 0.956863
1.000000 1.000000 0.992157
0.972549 1.000000 0.980392
0.972549 1.000000 0.980392
0.972549 1.000000 0.980392
0.972549 1.000000 0.980392
0.972549 1.000000 0.980392
0.972549 1.000000 0.980392
0.980392 1.000000 0.984314
0.996078 1.000000 0.988235
1.000000 1.000000 0.996078
0.313725 0.380392 0.854902
0.364706 0.380392 0.854902
0.486275 0.376471 0.854902
0.694118 0.396078 0.847059
0.913725 0.501961 0.827451
1.000000 0.666667 0.792157
1.000000 0.823529 0.831373
1.000000 0.937255 0.925490
1.000000 0.988235 0.984314
0.227451 0.392157 0.862745
0.298039 0.388235 0.862745
0.466667 0.384314 0.858824
0.690196 0.400000 0.850980
0.913725 0.501961 0.827451
1.000000 0.666667 0.792157
1.000000 0.823529 0.831373
1.000000 0.937255 0.925490
1.000000 0.988235 0.984314
0.098039 0.466667 0.843137
0.129412 0.458824 0.847059
0.313725 0.423529 0.870588
0.670588 0.411765 0.858824
0.909804 0.501961 0.827451
1.000000 0.666667 0.792157
1.000000 0.823529 0.831373
1.000000 0.937255 0.925490
1.000000 0.988235 0.984314
0.011765 0.647059 0.835294
0.011765 0.639216 0.839216
0.039216 0.623529 0.850980
0.568627 0.596078 0.858824
0.894118 0.564706 0.827451
1.000000 0.666667 0.792157
1.000000 0.823529 0.831373
1.000000 0.937255 0.925490
1.000000 0.988235 0.984314
0.043137 0.850980 0.827451
0.043137 0.850980 0.827451
0.039216 0.847059 0.823529
0.227451 0.831373 0.815686
0.788235 0.796078 0.796078
0.976471 0.768627 0.780392
1.000000 0.831373 0.831373
1.000000 0.937255 0.925490
1.000000 0.988235 0.984314
0.282353 0.968627 0.772549
0.282353 0.968627 0.772549
0.282353 0.968627 0.768627
0.274510 0.964706 0.764706
0.662745 0.945098 0.764706
0.901961 0.913725 0.768627
0.996078 0.898039 0.831373
1.000000 0.945098 0.925490
1.000000 0.988235 0.984314
0.674510 1.000000 0.803922
0.674510 1.000000 0.803922
0.674510 1.000000 0.800000
0.674510 1.000000 0.800000
0.698039 1.000000 0.800000
0.843137 0.996078 0.811765
0.972549 0.976471 0.862745
1.000000 0.976471 0.933333
1.000000 0.996078 0.988235
0.874510 1.000000 0.905882
0.874510 1.000000 0.905882
0.874510 1.000000 0.905882
0.874510 1.000000 0.905882
0.874510 1.000000 0.905882
0.890196 1.000000 0.905882
0.949020 1.000000 0.921569
0.996078 1.000000 0.956863
1.000000 1.000000 0.992157
0.968627 1.000000 0.980392
0.968627 1.000000 0.980392
0.968627 1.000000 0.980392
0.968627 1.000000 0.980392
0.968627 1.000000 0.980392
0.968627 1.000000 0.980392
0.980392 1.000000 0.984314
0.996078 1.000000 0.988235
1.000000 1.000000 0.996078
0.592157 0.623529 0.968627
0.603922 0.627451 0.964706
0.643137 0.627451 0.964706
0.725490 0.635294 0.960784
0.862745 0.670588 0.952941
0.980392 0.741176 0.933333
1.000000 0.839216 0.913725
1.000000 0.933333 0.941176
1.000000 0.988235 0.988235
0.584314 0.627451 0.968627
0.596078 0.627451 0.968627
0.635294 0.631373 0.964706
0.721569 0.639216 0.960784
0.862745 0.670588 0.952941
0.980392 0.741176 0.933333
1.000000 0.839216 0.913725
1.000000 0.933333 0.941176
1.000000 0.988235 0.988235
0.533333 0.627451 0.972549
0.545098 0.631373 0.972549
0.600000 0.635294 0.972549
0.709804 0.643137 0.964706
0.858824 0.670588 0.952941
0.980392 0.741176 0.933333
1.000000 0.839216 0.913725
1.000000 0.933333 0.941176
1.000000 0.988235 0.988235
0.258824 0.674510 0.976471
0.262745 0.670588 0.976471
0.345098 0.662745 0.980392
0.627451 0.662745 0.980392
0.843137 0.682353 0.960784
0.976471 0.741176 0.933333
1.000000 0.839216 0.913725
1.000000 0.933333 0.941176
1.000000 0.988235 0.988235
0.258824 0.811765 0.964706
0.258824 0.811765 0.964706
0.258824 0.807843 0.964706
0.411765 0.796078 0.964706
0.776471 0.796078 0.949020
0.956863 0.792157 0.929412
1.000000 0.847059 0.913725
1.000000 0.933333 0.941176
1.000000 0.988235 0.988235
0.443137 0.949020 0.933333
0.443137 0.949020 0.933333
0.439216 0.949020 0.933333
0.415686 0.945098 0.929412
0.678431 0.933333 0.925490
0.905882 0.913725 0.913725
0.996078 0.901961 0.909804
1.000000 0.941176 0.941176
1.000000 0.988235 0.988235
0.686275 1.000000 0.898039
0.686275 1.000000 0.898039
0.686275 1.000000 0.898039
0.686275 1.000000 0.898039
0.705882 1.000000 0.894118
0.843137 0.992157 0.894118
0.964706 0.976471 0.901961
1.000000 0.976471 0.941176
1.000000 0.992157 0.988235
0.854902 1.000000 0.921569
0.854902 1.000000 0.921569
0.854902 1.000000 0.921569
0.854902 1.000000 0.921569
0.854902 1.000000 0.921569
0.870588 1.000000 0.921569
0.941176 1.000000 0.929412
0.992157 1.000000 0.956863
1.000000 1.000000 0.992157
0.960784 1.000000 0.980392
0.960784 1.000000 0.980392
0.960784 1.000000 0.980392
0.960784 1.000000 0.980392
0.960784 1.000000 0.980392
0.960784 1.000000 0.980392
0.972549 1.000000 0.984314
0.992157 1.000000 0.988235
1.000000 1.000000 0.996078
0.792157 0.807843 1.000000
0.792157 0.807843 1.000000
0.800000 0.807843 1.000000
0.823529 0.811765 1.000000
0.874510 0.819608 1.000000
0.952941 0.839216 0.996078
0.996078 0.886275 0.984314
1.000000 0.945098 0.980392
1.000000 0.988235 0.996078
0.788235 0.807843 1.000000
0.792157 0.807843 1.000000
0.800000 0.807843 1.000000
0.823529 0.811765 1.000000
0.874510 0.819608 1.000000
0.952941 0.839216 0.996078
0.996078 0.886275 0.984314
1.000000 0.945098 0.980392
1.000000 0.988235 0.996078
0.784314 0.807843 1.000000
0.784314 0.807843 1.000000
0.792157 0.811765 1.000000
0.819608 0.811765 1.000000
0.874510 0.819608 1.000000
0.952941 0.839216 0.996078
0.996078 0.886275 0.984314
1.000000 0.945098 0.980392
1.000000 0.988235 0.996078
0.749020 0.807843 1.000000
0.749020 0.807843 1.000000
0.760784 0.811765 1.000000
0.800000 0.815686 1.000000
0.866667 0.823529 1.000000
0.949020 0.843137 0.996078
0.996078 0.886275 0.984314
1.000000 0.945098 0.980392
1.000000 0.988235 0.996078
0.662745 0.839216 1.000000
0.662745 0.835294 1.000000
0.666667 0.835294 1.000000
0.698039 0.835294 1.000000
0.815686 0.839216 1.000000
0.937255 0.854902 0.996078
0.996078 0.886275 0.984314
1.000000 0.945098 0.980392
1.000000 0.988235 0.996078
0.670588 0.921569 0.996078
0.670588 0.921569 0.996078
0.670588 0.921569 0.996078
0.670588 0.917647 0.996078
0.741176 0.917647 0.996078
0.901961 0.917647 0.992157
0.992157 0.917647 0.984314
1.000000 0.949020 0.980392
1.000000 0.988235 0.992157
0.752941 0.992157 0.984314
0.752941 0.992157 0.984314
0.752941 0.992157 0.984314
0.749020 0.992157 0.984314
0.760784 0.988235 0.980392
0.854902 0.984314 0.980392
0.968627 0.976471 0.976471
1.000000 0.976471 0.980392
1.000000 0.992157 0.992157
0.858824 1.000000 0.972549
0.858824 1.000000 0.972549
0.858824 1.000000 0.972549
0.858824 1.000000 0.972549
0.858824 1.000000 0.972549
0.870588 1.000000 0.972549
0.941176 1.000000 0.972549
0.992157 1.000000 0.980392
1.000000 1.000000 0.996078
0.949020 1.000000 0.992157
0.949020 1.000000 0.992157
0.949020 1.000000 0.992157
0.949020 1.000000 0.992157
0.949020 1.000000 0.992157
0.949020 1.000000 0.992157
0.960784 1.000000 0.992157
0.988235 1.000000 0.992157
1.000000 1.000000 1.000000
0.913725 0.925490 1.000000
0.913725 0.925490 1.000000
0.917647 0.925490 1.000000
0.921569 0.925490 1.000000
0.937255 0.925490 1.000000
0.968627 0.933333 1.000000
0.996078 0.945098 1.000000
1.000000 0.972549 1.000000
1.000000 0.996078 1.000000
0.913725 0.925490 1.000000
0.913725 0.925490 1.000000
0.917647 0.925490 1.000000
0.921569 0.925490 1.000000
0.937255 0.925490 1.000000
0.968627 0.933333 1.000000
0.996078 0.945098 1.000000
1.000000 0.972549 1.000000
1.000000 0.996078 1.000000
0.913725 0.925490 1.000000
0.913725 0.925490 1.000000
0.913725 0.925490 1.000000
0.921569 0.925490 1.000000
0.933333 0.925490 1.000000
0.968627 0.933333 1.000000
0.996078 0.945098 1.000000
1.000000 0.972549 1.000000
1.000000 0.996078 1.000000
0.909804 0.925490 1.000000
0.909804 0.925490 1.000000
0.909804 0.925490 1.000000
0.917647 0.925490 1.000000
0.933333 0.929412 1.000000
0.964706 0.933333 1.000000
0.996078 0.945098 1.000000
1.000000 0.972549 1.000000
1.000000 0.996078 1.000000
0.882353 0.925490 1.000000
0.886275 0.925490 1.000000
0.886275 0.925490 1.000000
0.894118 0.925490 1.000000
0.917647 0.929412 1.000000
0.956863 0.933333 1.000000
0.996078 0.945098 1.000000
1.000000 0.972549 1.000000
1.000000 0.996078 1.000000
0.847059 0.941176 1.000000
0.847059 0.941176 1.000000
0.847059 0.941176 1.000000
0.847059 0.941176 1.000000
0.870588 0.941176 1.000000
0.929412 0.945098 1.000000
0.988235 0.952941 1.000000
1.000000 0.976471 1.000000
1.000000 0.996078 1.000000
0.847059 0.984314 1.000000
0.847059 0.980392 1.000000
0.847059 0.980392 1.000000
0.847059 0.980392 1.000000
0.850980 0.980392 1.000000
0.890196 0.980392 1.000000
0.968627 0.984314 1.000000
1.000000 0.988235 1.000000
1.000000 0.996078 1.000000
0.894118 1.000000 1.000000
0.894118 1.000000 1.000000
0.894118 1.000000 1.000000
0.894118 1.000000 1.000000
0.894118 1.000000 1.000000
0.898039 1.000000 1.000000
0.949020 1.000000 1.000000
0.996078 1.000000 1.000000
1.000000 1.000000 1.000000
0.952941 1.000000 1.000000
0.952941 1.000000 1.000000
0.952941 1.000000 1.000000
0.952941 1.000000 1.000000
0.952941 1.000000 1.000000
0.952941 1.000000 1.000000
0.960784 1.000000 1.000000
0.988235 1.000000 1.000000
1.000000 1.000000 1.000000
0.984314 0.984314 1.000000
0.984314 0.984314 1.000000
0.984314 0.984314 1.000000
0.984314 0.984314 1.000000
0.988235 0.988235 1.000000
0.992157 0.988235 1.000000
1.000000 0.988235 1.000000
1.000000 0.996078 1.000000
1.000000 1.000000 1.000000
0.984314 0.984314 1.000000
0.984314 0.984314 1.000000
0.984314 0.984314 1.000000
0.984314 0.984314 1.000000
0.988235 0.988235 1.000000
0.992157 0.988235 1.000000
1.000000 0.988235 1.000000
1.000000 0.996078 1.000000
1.000000 1.000000 1.000000
0.984314 0.984314 1.000000
0.984314 0.984314 1.000000
0.984314 0.984314 1.000000
0.984314 0.984314 1.000000
0.988235 0.988235 1.000000
0.992157 0.988235 1.000000
1.000000 0.988235 1.000000
1.000000 0.996078 1.000000
1.000000 1.000000 1.000000
0.984314 0.984314 1.000000
0.984314 0.984314 1.000000
0.984314 0.984314 1.000000
0.984314 0.984314 1.000000
0.984314 0.988235 1.000000
0.992157 0.988235 1.000000
1.000000 0.988235 1.000000
1.000000 0.996078 1.000000
1.000000 1.000000 1.000000
0.980392 0.984314 1.000000
0.980392 0.984314 1.000000
0.980392 0.984314 1.000000
0.980392 0.984314 1.000000
0.984314 0.988235 1.000000
0.992157 0.988235 1.000000
1.000000 0.988235 1.000000
1.000000 0.996078 1.000000
1.000000 1.000000 1.000000
0.964706 0.988235 1.000000
0.964706 0.988235 1.000000
0.964706 0.988235 1.000000
0.968627 0.988235 1.000000
0.972549 0.988235 1.000000
0.984314 0.988235 1.000000
0.996078 0.992157 1.000000
1.000000 0.996078 1.000000
1.000000 1.000000 1.000000
0.945098 0.996078 1.000000
0.945098 0.996078 1.000000
0.945098 0.996078 1.000000
0.945098 0.996078 1.000000
0.945098 0.992157 1.000000
0.956863 0.992157 1.000000
0.984314 0.996078 1.000000
1.000000 0.996078 1.000000
1.000000 1.000000 1.000000
0.945098 1.000000 1.000000
0.945098 1.000000 1.000000
0.945098 1.000000 1.000000
0.945098 1.000000 1.000000
0.945098 1.000000 1.000000
0.949020 1.000000 1.000000
0.972549 1.000000 1.000000
0.996078 1.000000 1.000000
1.000000 1.000000 1.000000
0.972549 1.000000 1.000000
0.972549 1.000000 1.000000
0.972549 1.000000 1.000000
0.972549 1.000000 1.000000
0.972549 1.000000 1.000000
0.972549 1.000000 1.000000
0.976471 1.000000 1.000000
0.992157 1.000000 1.000000
1.000000 1.000000 1.000000
