assets/lut/poo.CUBE
#Created by www.Photopea.com
TITLE "Screenshot from 2026-03-19 16-21-12.png"
#LUT size
LUT_3D_SIZE 5
#data domain
DOMAIN_MIN 0.0 0.0 0.0
DOMAIN_MAX 1.0 1.0 1.0
#LUT data points
0.035294 0.035294 0.035294
0.388235 0.035294 0.011765
0.964706 0.400000 0.301961
1.000000 0.831373 0.807843
1.000000 0.988235 0.984314
0.000000 0.356863 0.160784
0.333333 0.341176 0.000000
0.964706 0.396078 0.298039
1.000000 0.831373 0.807843
1.000000 0.988235 0.984314
0.086275 0.862745 0.329412
0.086275 0.858824 0.329412
0.815686 0.807843 0.403922
1.000000 0.839216 0.807843
1.000000 0.988235 0.984314
0.749020 1.000000 0.776471
0.749020 1.000000 0.776471
0.760784 1.000000 0.780392
0.972549 0.980392 0.858824
1.000000 0.996078 0.988235
0.972549 1.000000 0.980392
0.972549 1.000000 0.980392
0.972549 1.000000 0.980392
0.980392 1.000000 0.984314
1.000000 1.000000 0.996078
0.015686 0.074510 0.333333
0.400000 0.003922 0.341176
0.976471 0.333333 0.337255
1.000000 0.831373 0.807843
1.000000 0.988235 0.984314
0.000000 0.376471 0.368627
0.301961 0.301961 0.305882
0.972549 0.333333 0.333333
1.000000 0.831373 0.807843
1.000000 0.988235 0.984314
0.062745 0.854902 0.439216
0.062745 0.854902 0.435294
0.815686 0.803922 0.400000
1.000000 0.839216 0.807843
1.000000 0.988235 0.984314
0.745098 1.000000 0.776471
0.745098 1.000000 0.776471
0.760784 1.000000 0.780392
0.972549 0.980392 0.858824
1.000000 0.996078 0.988235
0.972549 1.000000 0.980392
0.972549 1.000000 0.980392
0.972549 1.000000 0.980392
0.980392 1.000000 0.984314
1.000000 1.000000 0.996078
0.313725 0.380392 0.854902
0.486275 0.376471 0.854902
0.913725 0.501961 0.827451
1.000000 0.823529 0.831373
1.000000 0.988235 0.984314
0.098039 0.466667 0.843137
0.313725 0.423529 0.870588
0.909804 0.501961 0.827451
1.000000 0.823529 0.831373
1.000000 0.988235 0.984314
0.043137 0.850980 0.827451
0.039216 0.847059 0.823529
0.788235 0.796078 0.796078
1.000000 0.831373 0.831373
1.000000 0.988235 0.984314
0.674510 1.000000 0.803922
0.674510 1.000000 0.800000
0.698039 1.000000 0.800000
0.972549 0.976471 0.862745
1.000000 0.996078 0.988235
0.968627 1.000000 0.980392
0.968627 1.000000 0.980392
0.968627 1.000000 0.980392
0.980392 1.000000 0.984314
1.000000 1.000000 0.996078
0.792157 0.807843 1.000000
0.800000 0.807843 1.000000
0.874510 0.819608 1.000000
0.996078 0.886275 0.984314
1.000000 0.988235 0.996078
0.784314 0.807843 1.000000
0.792157 0.811765 1.000000
0.874510 0.819608 1.000000
0.996078 0.886275 0.984314
1.000000 0.988235 0.996078
0.662745 0.839216 1.000000
0.666667 0.835294 1.000000
0.815686 0.839216 1.000000
0.996078 0.886275 0.984314
1.000000 0.988235 0.996078
0.752941 0.992157 0.984314
0.752941 0.992157 0.984314
0.760784 0.988235 0.980392
0.968627 0.976471 0.976471
1.000000 0.992157 0.992157
0.949020 1.000000 0.992157
0.949020 1.000000 0.992157
0.949020 1.000000 0.992157
0.960784 1.000000 0.992157
1.000000 1.000000 1.000000
0.984314 0.984314 1.000000
0.984314 0.984314 1.000000
0.988235 0.988235 1.000000
1.000000 0.988235 1.000000
1.000000 1.000000 1.000000
0.984314 0.984314 1.000000
0.984314 0.984314 1.000000
0.988235 0.988235 1.000000
1.000000 0.988235 1.000000
1.000000 1.000000 1.000000
0.980392 0.984314 1.000000
0.980392 0.984314 1.000000
0.984314 0.988235 1.000000
1.000000 0.988235 1.000000
1.000000 1.000000 1.000000
0.945098 0.996078 1.000000
0.945098 0.996078 1.000000
0.945098 0.992157 1.000000
0.984314 0.996078 1.000000
1.000000 1.000000 1.000000
0.972549 1.000000 1.000000
0.972549 1.000000 1.000000
0.972549 1.000000 1.000000
0.976471 1.000000 1.000000
1.000000 1.000000 1.000000
