assets/lut/punchy.cube
TITLE "Exported LUT"
LUT_3D_SIZE 8
DOMAIN_MIN 0.000000 0.000000 0.000000
DOMAIN_MAX 0.903226 0.903226 0.903226
0.000000 0.000000 0.000000
0.218708 0.000000 0.000000
0.360361 0.000000 0.000000
0.506108 0.000000 0.000000
0.650467 0.000000 0.000000
0.795144 0.000000 0.000000
0.940870 0.000000 0.000000
1.000000 0.000000 0.000000
0.000000 0.218708 0.000000
0.207307 0.218708 0.000000
0.360361 0.207307 0.000000
0.506108 0.181896 0.000000
0.650467 0.195098 0.000000
0.795144 0.195098 0.000000
0.940870 0.195098 0.000000
1.000000 0.195098 0.000000
0.000000 0.360361 0.000000
0.167429 0.360361 0.000000
0.341576 0.360361 0.000000
0.506108 0.360361 0.000000
0.650467 0.354232 0.000000
0.795144 0.354232 0.000000
0.940870 0.360361 0.000000
1.000000 0.360361 0.000000
0.000000 0.506108 0.000000
0.132737 0.506108 0.000000
0.307164 0.506108 0.000000
0.481156 0.506108 0.000000
0.650467 0.518046 0.000000
0.795144 0.514104 0.000000
0.940870 0.514104 0.000000
1.000000 0.518046 0.000000
0.000000 0.650467 0.000000
0.110395 0.650467 0.000000
0.292020 0.650467 0.000000
0.454547 0.650467 0.000000
0.619733 0.650467 0.000000
0.795144 0.676709 0.000000
0.940870 0.673853 0.000000
1.000000 0.673853 0.000000
0.000000 0.795144 0.000000
0.110395 0.795144 0.000000
0.275870 0.795144 0.000000
0.435714 0.795144 0.000000
0.597081 0.795144 0.000000
0.756468 0.795144 0.000000
0.940870 0.829457 0.000000
1.000000 0.829457 0.000000
0.000000 0.940870 0.000000
0.080560 0.940870 0.000000
0.258497 0.940870 0.000000
0.420922 0.940870 0.000000
0.580248 0.940870 0.000000
0.736210 0.940870 0.000000
0.893411 0.940870 0.000000
1.000000 0.985616 0.000000
0.000000 1.000000 0.000000
0.080560 1.000000 0.000000
0.258497 1.000000 0.000000
0.415850 1.000000 0.000000
0.573349 1.000000 0.000000
0.728438 1.000000 0.000000
0.885203 1.000000 0.000000
0.950401 1.000000 0.000000
0.000000 0.000000 0.218708
0.218708 0.000000 0.207307
0.360361 0.000000 0.167429
0.506108 0.000000 0.132737
0.650467 0.000000 0.110395
0.795144 0.000000 0.110395
0.940870 0.000000 0.080560
1.000000 0.000000 0.080560
0.000000 0.207307 0.218708
0.218708 0.207307 0.207307
0.360361 0.181896 0.181896
0.506108 0.167429 0.151280
0.650467 0.151280 0.132737
0.795144 0.132737 0.110395
0.940870 0.110395 0.080560
1.000000 0.110395 0.000000
0.000000 0.360361 0.207307
0.181896 0.360361 0.181896
0.354232 0.360361 0.181896
0.506108 0.347973 0.151280
0.650467 0.328330 0.132737
0.795144 0.314409 0.110395
0.940870 0.299707 0.080560
1.000000 0.292020 0.000000
0.000000 0.506108 0.181896
0.151280 0.506108 0.167429
0.314409 0.506108 0.151280
0.489643 0.506108 0.151280
0.650467 0.502052 0.132737
0.795144 0.485422 0.110395
0.940870 0.468078 0.080560
1.000000 0.459110 0.000000
0.000000 0.650467 0.195098
0.132737 0.650467 0.151280
0.275870 0.650467 0.132737
0.449927 0.650467 0.132737
0.626025 0.650467 0.132737
0.795144 0.659353 0.110395
0.940870 0.641432 0.080560
1.000000 0.632242 0.000000
0.000000 0.795144 0.195098
0.110395 0.795144 0.132737
0.239595 0.795144 0.110395
0.415850 0.795144 0.110395
0.590417 0.795144 0.110395
0.761432 0.795144 0.110395
0.940870 0.811373 0.080560
1.000000 0.804466 0.000000
0.000000 0.940870 0.195098
0.080560 0.940870 0.110395
0.207307 0.940870 0.080560
0.383716 0.940870 0.080560
0.555647 0.940870 0.080560
0.725825 0.940870 0.080560
0.897481 0.940870 0.080560
1.000000 0.974660 0.000000
0.000000 1.000000 0.195098
0.000000 1.000000 0.110395
0.195098 1.000000 0.000000
0.366368 1.000000 0.000000
0.540983 1.000000 0.000000
0.712588 1.000000 0.000000
0.883137 1.000000 0.000000
0.954181 1.000000 0.000000
0.000000 0.000000 0.360361
0.207307 0.000000 0.360361
0.360361 0.000000 0.341576
0.506108 0.000000 0.307164
0.650467 0.000000 0.292020
0.795144 0.000000 0.275870
0.940870 0.000000 0.258497
1.000000 0.000000 0.258497
0.000000 0.167429 0.360361
0.181896 0.181896 0.360361
0.360361 0.181896 0.354232
0.506108 0.151280 0.314409
0.650467 0.132737 0.275870
0.795144 0.110395 0.239595
0.940870 0.080560 0.207307
1.000000 0.000000 0.195098
0.000000 0.341576 0.360361
0.181896 0.354232 0.360361
0.360361 0.347973 0.347973
0.506108 0.328330 0.321460
0.650467 0.314409 0.292020
0.795144 0.299707 0.267353
0.940870 0.275870 0.249261
1.000000 0.275870 0.229437
0.000000 0.506108 0.360361
0.151280 0.506108 0.347973
0.321460 0.506108 0.328330
0.497957 0.506108 0.321460
0.650467 0.489643 0.292020
0.795144 0.472486 0.267353
0.940870 0.454547 0.249261
1.000000 0.445250 0.229437
0.000000 0.650467 0.354232
0.132737 0.650467 0.328330
0.292020 0.650467 0.314409
0.454547 0.650467 0.292020
0.632242 0.650467 0.292020
0.795144 0.647472 0.267353
0.940870 0.629142 0.249261
1.000000 0.619733 0.229437
0.000000 0.795144 0.354232
0.110395 0.795144 0.314409
0.267353 0.795144 0.299707
0.420922 0.795144 0.267353
0.593760 0.795144 0.267353
0.768805 0.795144 0.267353
0.940870 0.802148 0.249261
1.000000 0.792793 0.229437
0.000000 0.940870 0.360361
0.080560 0.940870 0.299707
0.249261 0.940870 0.275870
0.383716 0.940870 0.249261
0.559241 0.940870 0.249261
0.731040 0.940870 0.249261
0.905556 0.940870 0.249261
1.000000 0.965416 0.229437
0.000000 1.000000 0.360361
0.000000 1.000000 0.292020
0.229437 1.000000 0.275870
0.372258 1.000000 0.229437
0.544693 1.000000 0.229437
0.717918 1.000000 0.229437
0.889318 1.000000 0.229437
0.963554 1.000000 0.229437
0.000000 0.000000 0.506108
0.181896 0.000000 0.506108
0.360361 0.000000 0.506108
0.506108 0.000000 0.481156
0.650467 0.000000 0.454547
0.795144 0.000000 0.435714
0.940870 0.000000 0.420922
1.000000 0.000000 0.415850
0.000000 0.132737 0.506108
0.167429 0.151280 0.506108
0.347973 0.151280 0.506108
0.506108 0.151280 0.489643
0.650467 0.132737 0.449927
0.795144 0.110395 0.415850
0.940870 0.080560 0.383716
1.000000 0.000000 0.366368
0.000000 0.307164 0.506108
0.151280 0.314409 0.506108
0.328330 0.321460 0.506108
0.506108 0.321460 0.497957
0.650467 0.292020 0.454547
0.795144 0.267353 0.420922
0.940870 0.249261 0.383716
1.000000 0.229437 0.372258
0.000000 0.481156 0.506108
0.151280 0.489643 0.506108
0.321460 0.497957 0.506108
0.506108 0.485422 0.485422
0.650467 0.468078 0.459110
0.795144 0.454547 0.435714
0.940870 0.435714 0.410703
1.000000 0.430851 0.400170
0.000000 0.650467 0.518046
0.132737 0.650467 0.502052
0.292020 0.650467 0.489643
0.459110 0.650467 0.468078
0.641432 0.650467 0.459110
0.795144 0.632242 0.435714
0.940870 0.613363 0.410703
1.000000 0.606913 0.400170
0.000000 0.795144 0.514104
0.110395 0.795144 0.485422
0.267353 0.795144 0.472486
0.435714 0.795144 0.454547
0.597081 0.795144 0.435714
0.778507 0.795144 0.435714
0.940870 0.790433 0.410703
1.000000 0.780910 0.400170
0.000000 0.940870 0.514104
0.080560 0.940870 0.468078
0.249261 0.940870 0.454547
0.410703 0.940870 0.435714
0.559241 0.940870 0.410703
0.736210 0.940870 0.410703
0.913545 0.940870 0.410703
1.000000 0.957944 0.400170
0.000000 1.000000 0.518046
0.000000 1.000000 0.459110
0.229437 1.000000 0.445250
0.400170 1.000000 0.430851
0.544693 1.000000 0.400170
0.720565 1.000000 0.400170
0.897481 1.000000 0.400170
0.970975 1.000000 0.400170
0.000000 0.000000 0.650467
0.195098 0.000000 0.650467
0.354232 0.000000 0.650467
0.518046 0.000000 0.650467
0.650467 0.000000 0.619733
0.795144 0.000000 0.597081
0.940870 0.000000 0.580248
1.000000 0.000000 0.573349
0.000000 0.110395 0.650467
0.151280 0.132737 0.650467
0.328330 0.132737 0.650467
0.502052 0.132737 0.650467
0.650467 0.132737 0.626025
0.795144 0.110395 0.590417
0.940870 0.080560 0.555647
1.000000 0.000000 0.540983
0.000000 0.292020 0.650467
0.132737 0.275870 0.650467
0.314409 0.292020 0.650467
0.489643 0.292020 0.650467
0.650467 0.292020 0.632242
0.795144 0.267353 0.593760
0.940870 0.249261 0.559241
1.000000 0.229437 0.544693
0.000000 0.454547 0.650467
0.132737 0.449927 0.650467
0.292020 0.454547 0.650467
0.468078 0.459110 0.650467
0.650467 0.459110 0.641432
0.795144 0.435714 0.597081
0.940870 0.410703 0.559241
1.000000 0.400170 0.544693
0.000000 0.619733 0.650467
0.132737 0.626025 0.650467
0.292020 0.632242 0.650467
0.459110 0.641432 0.650467
0.650467 0.626025 0.626025
0.795144 0.610149 0.600380
0.940870 0.593760 0.573349
1.000000 0.587051 0.562808
0.000000 0.795144 0.676709
0.110395 0.795144 0.659353
0.267353 0.795144 0.647472
0.435714 0.795144 0.632242
0.600380 0.795144 0.610149
0.785689 0.795144 0.600380
0.940870 0.776095 0.573349
1.000000 0.766357 0.562808
0.000000 0.940870 0.673853
0.080560 0.940870 0.641432
0.249261 0.940870 0.629142
0.410703 0.940870 0.613363
0.573349 0.940870 0.593760
0.738778 0.940870 0.573349
0.921452 0.940870 0.573349
1.000000 0.946602 0.562808
0.000000 1.000000 0.673853
0.000000 1.000000 0.632242
0.229437 1.000000 0.619733
0.400170 1.000000 0.606913
0.562808 1.000000 0.587051
0.723201 1.000000 0.562808
0.903545 1.000000 0.562808
0.978328 1.000000 0.562808
0.000000 0.000000 0.795144
0.195098 0.000000 0.795144
0.354232 0.000000 0.795144
0.514104 0.000000 0.795144
0.676709 0.000000 0.795144
0.795144 0.000000 0.756468
0.940870 0.000000 0.736210
1.000000 0.000000 0.728438
0.000000 0.110395 0.795144
0.132737 0.110395 0.795144
0.314409 0.110395 0.795144
0.485422 0.110395 0.795144
0.659353 0.110395 0.795144
0.795144 0.110395 0.761432
0.940870 0.080560 0.725825
1.000000 0.000000 0.712588
0.000000 0.275870 0.795144
0.110395 0.239595 0.795144
0.299707 0.267353 0.795144
0.472486 0.267353 0.795144
0.647472 0.267353 0.795144
0.795144 0.267353 0.768805
0.940870 0.249261 0.731040
1.000000 0.229437 0.717918
0.000000 0.435714 0.795144
0.110395 0.415850 0.795144
0.267353 0.420922 0.795144
0.454547 0.435714 0.795144
0.632242 0.435714 0.795144
0.795144 0.435714 0.778507
0.940870 0.410703 0.736210
1.000000 0.400170 0.720565
0.000000 0.597081 0.795144
0.110395 0.590417 0.795144
0.267353 0.593760 0.795144
0.435714 0.597081 0.795144
0.610149 0.600380 0.795144
0.795144 0.600380 0.785689
0.940870 0.573349 0.738778
1.000000 0.562808 0.723201
0.000000 0.756468 0.795144
0.110395 0.761432 0.795144
0.267353 0.768805 0.795144
0.435714 0.778507 0.795144
0.600380 0.785689 0.795144
0.795144 0.763899 0.763899
0.940870 0.748948 0.738778
1.000000 0.741337 0.728438
0.000000 0.940870 0.829457
0.080560 0.940870 0.811373
0.249261 0.940870 0.802148
0.410703 0.940870 0.790433
0.573349 0.940870 0.776095
0.738778 0.940870 0.748948
0.929277 0.940870 0.738778
1.000000 0.933161 0.728438
0.000000 1.000000 0.829457
0.000000 1.000000 0.804466
0.229437 1.000000 0.792793
0.400170 1.000000 0.780910
0.562808 1.000000 0.766357
0.728438 1.000000 0.741337
0.905556 1.000000 0.728438
0.987428 1.000000 0.728438
0.000000 0.000000 0.940870
0.195098 0.000000 0.940870
0.360361 0.000000 0.940870
0.514104 0.000000 0.940870
0.673853 0.000000 0.940870
0.829457 0.000000 0.940870
0.940870 0.000000 0.893411
1.000000 0.000000 0.885203
0.000000 0.080560 0.940870
0.110395 0.080560 0.940870
0.299707 0.080560 0.940870
0.468078 0.080560 0.940870
0.641432 0.080560 0.940870
0.811373 0.080560 0.940870
0.940870 0.080560 0.897481
1.000000 0.000000 0.883137
0.000000 0.258497 0.940870
0.080560 0.207307 0.940870
0.275870 0.249261 0.940870
0.454547 0.249261 0.940870
0.629142 0.249261 0.940870
0.802148 0.249261 0.940870
0.940870 0.249261 0.905556
1.000000 0.229437 0.889318
0.000000 0.420922 0.940870
0.080560 0.383716 0.940870
0.249261 0.383716 0.940870
0.435714 0.410703 0.940870
0.613363 0.410703 0.940870
0.790433 0.410703 0.940870
0.940870 0.410703 0.913545
1.000000 0.400170 0.897481
0.000000 0.580248 0.940870
0.080560 0.555647 0.940870
0.249261 0.559241 0.940870
0.410703 0.559241 0.940870
0.593760 0.573349 0.940870
0.776095 0.573349 0.940870
0.940870 0.573349 0.921452
1.000000 0.562808 0.903545
0.000000 0.736210 0.940870
0.080560 0.725825 0.940870
0.249261 0.731040 0.940870
0.410703 0.736210 0.940870
0.573349 0.738778 0.940870
0.748948 0.738778 0.940870
0.940870 0.738778 0.929277
1.000000 0.728438 0.905556
0.000000 0.893411 0.940870
0.080560 0.897481 0.940870
0.249261 0.905556 0.940870
0.410703 0.913545 0.940870
0.573349 0.921452 0.940870
0.738778 0.929277 0.940870
0.940870 0.901530 0.901530
1.000000 0.897481 0.891368
0.000000 1.000000 0.985616
0.000000 1.000000 0.974660
0.229437 1.000000 0.965416
0.400170 1.000000 0.957944
0.562808 1.000000 0.946602
0.728438 1.000000 0.933161
0.891368 1.000000 0.897481
0.994635 1.000000 0.891368
0.000000 0.000000 1.000000
0.195098 0.000000 1.000000
0.360361 0.000000 1.000000
0.518046 0.000000 1.000000
0.673853 0.000000 1.000000
0.829457 0.000000 1.000000
0.985616 0.000000 1.000000
1.000000 0.000000 0.950401
0.000000 0.080560 1.000000
0.110395 0.000000 1.000000
0.292020 0.000000 1.000000
0.459110 0.000000 1.000000
0.632242 0.000000 1.000000
0.804466 0.000000 1.000000
0.974660 0.000000 1.000000
1.000000 0.000000 0.954181
0.000000 0.258497 1.000000
0.000000 0.195098 1.000000
0.275870 0.229437 1.000000
0.445250 0.229437 1.000000
0.619733 0.229437 1.000000
0.792793 0.229437 1.000000
0.965416 0.229437 1.000000
1.000000 0.229437 0.963554
0.000000 0.415850 1.000000
0.000000 0.366368 1.000000
0.229437 0.372258 1.000000
0.430851 0.400170 1.000000
0.606913 0.400170 1.000000
0.780910 0.400170 1.000000
0.957944 0.400170 1.000000
1.000000 0.400170 0.970975
0.000000 0.573349 1.000000
0.000000 0.540983 1.000000
0.229437 0.544693 1.000000
0.400170 0.544693 1.000000
0.587051 0.562808 1.000000
0.766357 0.562808 1.000000
0.946602 0.562808 1.000000
1.000000 0.562808 0.978328
0.000000 0.728438 1.000000
0.000000 0.712588 1.000000
0.229437 0.717918 1.000000
0.400170 0.720565 1.000000
0.562808 0.723201 1.000000
0.741337 0.728438 1.000000
0.933161 0.728438 1.000000
1.000000 0.728438 0.987428
0.000000 0.885203 1.000000
0.000000 0.883137 1.000000
0.229437 0.889318 1.000000
0.400170 0.897481 1.000000
0.562808 0.903545 1.000000
0.728438 0.905556 1.000000
0.897481 0.891368 1.000000
1.000000 0.891368 0.994635
0.000000 0.950401 1.000000
0.000000 0.954181 1.000000
0.229437 0.963554 1.000000
0.400170 0.970975 1.000000
0.562808 0.978328 1.000000
0.728438 0.987428 1.000000
0.891368 0.994635 1.000000
1.000000 0.961688 0.961688
