assets/lut/punchy.cube
TITLE "Exported LUT"
LUT_3D_SIZE 32
DOMAIN_MIN 0.0 0.0 0.0
DOMAIN_MAX 1.0 1.0 1.0
0.000000 0.000000 0.000000
0.110395 0.000000 0.000000
0.132737 0.000000 0.000000
0.181896 0.000000 0.000000
0.218708 0.000000 0.000000
0.249261 0.000000 0.000000
0.284083 0.000000 0.000000
0.321460 0.000000 0.000000
0.360361 0.000000 0.000000
0.394777 0.000000 0.000000
0.435714 0.000000 0.000000
0.468078 0.000000 0.000000
0.506108 0.000000 0.000000
0.540983 0.000000 0.000000
0.576811 0.000000 0.000000
0.613363 0.000000 0.000000
0.650467 0.000000 0.000000
0.687988 0.000000 0.000000
0.723201 0.000000 0.000000
0.758955 0.000000 0.000000
0.795144 0.000000 0.000000
0.831684 0.000000 0.000000
0.868507 0.000000 0.000000
0.903545 0.000000 0.000000
0.940870 0.000000 0.000000
0.976496 0.000000 0.000000
1.000000 0.000000 0.000000
1.000000 0.000000 0.000000
1.000000 0.000000 0.000000
1.000000 0.000000 0.000000
1.000000 0.000000 0.000000
1.000000 0.000000 0.000000
0.000000 0.110395 0.000000
0.080560 0.110395 0.000000
0.132737 0.080560 0.000000
0.181896 0.080560 0.000000
0.218708 0.080560 0.000000
0.249261 0.080560 0.000000
0.284083 0.080560 0.000000
0.321460 0.080560 0.000000
0.360361 0.080560 0.000000
0.394777 0.000000 0.000000
0.435714 0.000000 0.000000
0.468078 0.000000 0.000000
0.506108 0.000000 0.000000
0.540983 0.000000 0.000000
0.576811 0.000000 0.000000
0.613363 0.000000 0.000000
0.650467 0.000000 0.000000
0.687988 0.000000 0.000000
0.723201 0.000000 0.000000
0.758955 0.000000 0.000000
0.795144 0.000000 0.000000
0.831684 0.080560 0.000000
0.868507 0.080560 0.000000
0.903545 0.080560 0.000000
0.940870 0.080560 0.000000
0.976496 0.080560 0.000000
1.000000 0.080560 0.000000
1.000000 0.080560 0.000000
1.000000 0.080560 0.000000
1.000000 0.080560 0.000000
1.000000 0.080560 0.000000
1.000000 0.080560 0.000000
0.000000 0.132737 0.000000
0.080560 0.132737 0.000000
0.132737 0.132737 0.000000
0.181896 0.132737 0.000000
0.218708 0.132737 0.000000
0.249261 0.132737 0.000000
0.284083 0.132737 0.000000
0.321460 0.110395 0.000000
0.360361 0.110395 0.000000
0.394777 0.110395 0.000000
0.435714 0.110395 0.000000
0.468078 0.110395 0.000000
0.506108 0.080560 0.000000
0.540983 0.110395 0.000000
0.576811 0.110395 0.000000
0.613363 0.110395 0.000000
0.650467 0.110395 0.000000
0.687988 0.110395 0.000000
0.723201 0.110395 0.000000
0.758955 0.110395 0.000000
0.795144 0.110395 0.000000
0.831684 0.110395 0.000000
0.868507 0.110395 0.000000
0.903545 0.110395 0.000000
0.940870 0.110395 0.000000
0.976496 0.110395 0.000000
1.000000 0.110395 0.000000
1.000000 0.110395 0.000000
1.000000 0.110395 0.000000
1.000000 0.110395 0.000000
1.000000 0.110395 0.000000
1.000000 0.110395 0.000000
0.000000 0.181896 0.000000
0.080560 0.181896 0.000000
0.132737 0.181896 0.000000
0.167429 0.181896 0.000000
0.218708 0.181896 0.000000
0.249261 0.167429 0.000000
0.284083 0.167429 0.000000
0.321460 0.167429 0.000000
0.360361 0.151280 0.000000
0.394777 0.151280 0.000000
0.435714 0.151280 0.000000
0.468078 0.151280 0.000000
0.506108 0.151280 0.000000
0.540983 0.151280 0.000000
0.576811 0.151280 0.000000
0.613363 0.151280 0.000000
0.650467 0.151280 0.000000
0.687988 0.151280 0.000000
0.723201 0.151280 0.000000
0.758955 0.151280 0.000000
0.795144 0.151280 0.000000
0.831684 0.151280 0.000000
0.868507 0.151280 0.000000
0.903545 0.151280 0.000000
0.940870 0.151280 0.000000
0.976496 0.151280 0.000000
1.000000 0.151280 0.000000
1.000000 0.151280 0.000000
1.000000 0.151280 0.000000
1.000000 0.151280 0.000000
1.000000 0.151280 0.000000
1.000000 0.151280 0.000000
0.000000 0.218708 0.000000
0.080560 0.218708 0.000000
0.110395 0.218708 0.000000
0.167429 0.218708 0.000000
0.207307 0.218708 0.000000
0.249261 0.218708 0.000000
0.284083 0.218708 0.000000
0.321460 0.207307 0.000000
0.360361 0.207307 0.000000
0.394777 0.195098 0.000000
0.435714 0.195098 0.000000
0.468078 0.195098 0.000000
0.506108 0.181896 0.000000
0.540983 0.181896 0.000000
0.576811 0.181896 0.000000
0.613363 0.195098 0.000000
0.650467 0.195098 0.000000
0.687988 0.195098 0.000000
0.723201 0.195098 0.000000
0.758955 0.195098 0.000000
0.795144 0.195098 0.000000
0.831684 0.195098 0.000000
0.868507 0.195098 0.000000
0.903545 0.195098 0.000000
0.940870 0.195098 0.000000
0.976496 0.195098 0.000000
1.000000 0.195098 0.000000
1.000000 0.195098 0.000000
1.000000 0.195098 0.000000
1.000000 0.195098 0.000000
1.000000 0.195098 0.000000
1.000000 0.195098 0.000000
0.000000 0.249261 0.000000
0.000000 0.249261 0.000000
0.110395 0.249261 0.000000
0.151280 0.249261 0.000000
0.195098 0.249261 0.000000
0.239595 0.249261 0.000000
0.284083 0.258497 0.000000
0.321460 0.249261 0.000000
0.360361 0.249261 0.000000
0.394777 0.239595 0.000000
0.435714 0.239595 0.000000
0.468078 0.239595 0.000000
0.506108 0.229437 0.000000
0.540983 0.229437 0.000000
0.576811 0.229437 0.000000
0.613363 0.229437 0.000000
0.650467 0.229437 0.000000
0.687988 0.229437 0.000000
0.723201 0.229437 0.000000
0.758955 0.229437 0.000000
0.795144 0.229437 0.000000
0.831684 0.239595 0.000000
0.868507 0.239595 0.000000
0.903545 0.239595 0.000000
0.940870 0.239595 0.000000
0.976496 0.239595 0.000000
1.000000 0.239595 0.000000
1.000000 0.239595 0.000000
1.000000 0.239595 0.000000
1.000000 0.239595 0.000000
1.000000 0.239595 0.000000
1.000000 0.239595 0.000000
0.000000 0.284083 0.000000
0.000000 0.284083 0.000000
0.080560 0.284083 0.000000
0.132737 0.284083 0.000000
0.181896 0.284083 0.000000
0.229437 0.284083 0.000000
0.275870 0.284083 0.000000
0.321460 0.299707 0.000000
0.360361 0.292020 0.000000
0.394777 0.284083 0.000000
0.435714 0.284083 0.000000
0.468078 0.275870 0.000000
0.506108 0.275870 0.000000
0.540983 0.275870 0.000000
0.576811 0.275870 0.000000
0.613363 0.275870 0.000000
0.650467 0.275870 0.000000
0.687988 0.275870 0.000000
0.723201 0.275870 0.000000
0.758955 0.275870 0.000000
0.795144 0.275870 0.000000
0.831684 0.275870 0.000000
0.868507 0.275870 0.000000
0.903545 0.275870 0.000000
0.940870 0.275870 0.000000
0.976496 0.275870 0.000000
1.000000 0.284083 0.000000
1.000000 0.284083 0.000000
1.000000 0.284083 0.000000
1.000000 0.284083 0.000000
1.000000 0.284083 0.000000
1.000000 0.284083 0.000000
0.000000 0.321460 0.000000
0.000000 0.321460 0.000000
0.080560 0.321460 0.000000
0.132737 0.321460 0.000000
0.181896 0.321460 0.000000
0.218708 0.321460 0.000000
0.267353 0.321460 0.000000
0.307164 0.321460 0.000000
0.360361 0.335031 0.000000
0.394777 0.328330 0.000000
0.435714 0.328330 0.000000
0.468078 0.321460 0.000000
0.506108 0.321460 0.000000
0.540983 0.314409 0.000000
0.576811 0.314409 0.000000
0.613363 0.314409 0.000000
0.650467 0.314409 0.000000
0.687988 0.314409 0.000000
0.723201 0.314409 0.000000
0.758955 0.314409 0.000000
0.795144 0.314409 0.000000
0.831684 0.314409 0.000000
0.868507 0.314409 0.000000
0.903545 0.314409 0.000000
0.940870 0.321460 0.000000
0.976496 0.321460 0.000000
1.000000 0.321460 0.000000
1.000000 0.321460 0.000000
1.000000 0.321460 0.000000
1.000000 0.321460 0.000000
1.000000 0.321460 0.000000
1.000000 0.321460 0.000000
0.000000 0.360361 0.000000
0.000000 0.360361 0.000000
0.080560 0.360361 0.000000
0.132737 0.360361 0.000000
0.167429 0.360361 0.000000
0.207307 0.360361 0.000000
0.258497 0.360361 0.000000
0.299707 0.360361 0.000000
0.341576 0.360361 0.000000
0.394777 0.372258 0.000000
0.435714 0.366368 0.000000
0.468078 0.366368 0.000000
0.506108 0.360361 0.000000
0.540983 0.360361 0.000000
0.576811 0.360361 0.000000
0.613363 0.354232 0.000000
0.650467 0.354232 0.000000
0.687988 0.354232 0.000000
0.723201 0.354232 0.000000
0.758955 0.354232 0.000000
0.795144 0.354232 0.000000
0.831684 0.354232 0.000000
0.868507 0.354232 0.000000
0.903545 0.354232 0.000000
0.940870 0.360361 0.000000
0.976496 0.360361 0.000000
1.000000 0.360361 0.000000
1.000000 0.360361 0.000000
1.000000 0.360361 0.000000
1.000000 0.360361 0.000000
1.000000 0.360361 0.000000
1.000000 0.360361 0.000000
0.000000 0.394777 0.000000
0.000000 0.394777 0.000000
0.080560 0.394777 0.000000
0.110395 0.394777 0.000000
0.151280 0.394777 0.000000
0.207307 0.394777 0.000000
0.249261 0.394777 0.000000
0.292020 0.394777 0.000000
0.335031 0.394777 0.000000
0.378039 0.394777 0.000000
0.435714 0.410703 0.000000
0.468078 0.405478 0.000000
0.506108 0.405478 0.000000
0.540983 0.400170 0.000000
0.576811 0.400170 0.000000
0.613363 0.400170 0.000000
0.650467 0.394777 0.000000
0.687988 0.394777 0.000000
0.723201 0.394777 0.000000
0.758955 0.394777 0.000000
0.795144 0.394777 0.000000
0.831684 0.394777 0.000000
0.868507 0.394777 0.000000
0.903545 0.394777 0.000000
0.940870 0.394777 0.000000
0.976496 0.400170 0.000000
1.000000 0.400170 0.000000
1.000000 0.400170 0.000000
1.000000 0.400170 0.000000
1.000000 0.400170 0.000000
1.000000 0.400170 0.000000
1.000000 0.400170 0.000000
0.000000 0.435714 0.000000
0.000000 0.435714 0.000000
0.000000 0.435714 0.000000
0.110395 0.435714 0.000000
0.151280 0.435714 0.000000
0.195098 0.435714 0.000000
0.239595 0.435714 0.000000
0.284083 0.435714 0.000000
0.328330 0.435714 0.000000
0.366368 0.435714 0.000000
0.410703 0.435714 0.000000
0.468078 0.449927 0.000000
0.506108 0.445250 0.000000
0.540983 0.445250 0.000000
0.576811 0.440513 0.000000
0.613363 0.440513 0.000000
0.650467 0.435714 0.000000
0.687988 0.435714 0.000000
0.723201 0.435714 0.000000
0.758955 0.435714 0.000000
0.795144 0.435714 0.000000
0.831684 0.435714 0.000000
0.868507 0.435714 0.000000
0.903545 0.435714 0.000000
0.940870 0.435714 0.000000
0.976496 0.435714 0.000000
1.000000 0.435714 0.000000
1.000000 0.435714 0.000000
1.000000 0.435714 0.000000
1.000000 0.435714 0.000000
1.000000 0.435714 0.000000
1.000000 0.435714 0.000000
0.000000 0.468078 0.000000
0.000000 0.468078 0.000000
0.000000 0.468078 0.000000
0.080560 0.468078 0.000000
0.132737 0.468078 0.000000
0.181896 0.468078 0.000000
0.229437 0.468078 0.000000
0.275870 0.468078 0.000000
0.314409 0.468078 0.000000
0.360361 0.468078 0.000000
0.405478 0.468078 0.000000
0.445250 0.468078 0.000000
0.506108 0.489643 0.000000
0.540983 0.485422 0.000000
0.576811 0.481156 0.000000
0.613363 0.481156 0.000000
0.650467 0.476845 0.000000
0.687988 0.476845 0.000000
0.723201 0.476845 0.000000
0.758955 0.476845 0.000000
0.795144 0.476845 0.000000
0.831684 0.476845 0.000000
0.868507 0.476845 0.000000
0.903545 0.476845 0.000000
0.940870 0.476845 0.000000
0.976496 0.476845 0.000000
1.000000 0.476845 0.000000
1.000000 0.476845 0.000000
1.000000 0.476845 0.000000
1.000000 0.476845 0.000000
1.000000 0.476845 0.000000
1.000000 0.476845 0.000000
0.000000 0.506108 0.000000
0.000000 0.506108 0.000000
0.000000 0.506108 0.000000
0.080560 0.506108 0.000000
0.132737 0.506108 0.000000
0.181896 0.506108 0.000000
0.218708 0.506108 0.000000
0.267353 0.506108 0.000000
0.307164 0.506108 0.000000
0.354232 0.506108 0.000000
0.394777 0.506108 0.000000
0.435714 0.506108 0.000000
0.481156 0.506108 0.000000
0.540983 0.525825 0.000000
0.576811 0.525825 0.000000
0.613363 0.521953 0.000000
0.650467 0.518046 0.000000
0.687988 0.518046 0.000000
0.723201 0.518046 0.000000
0.758955 0.518046 0.000000
0.795144 0.514104 0.000000
0.831684 0.514104 0.000000
0.868507 0.514104 0.000000
0.903545 0.514104 0.000000
0.940870 0.514104 0.000000
0.976496 0.514104 0.000000
1.000000 0.518046 0.000000
1.000000 0.518046 0.000000
1.000000 0.518046 0.000000
1.000000 0.518046 0.000000
1.000000 0.518046 0.000000
1.000000 0.518046 0.000000
0.000000 0.540983 0.000000
0.000000 0.540983 0.000000
0.000000 0.540983 0.000000
0.080560 0.540983 0.000000
0.132737 0.540983 0.000000
0.181896 0.540983 0.000000
0.218708 0.540983 0.000000
0.258497 0.540983 0.000000
0.307164 0.540983 0.000000
0.347973 0.540983 0.000000
0.389294 0.540983 0.000000
0.430851 0.540983 0.000000
0.472486 0.540983 0.000000
0.514104 0.540983 0.000000
0.576811 0.566348 0.000000
0.613363 0.562808 0.000000
0.650467 0.559241 0.000000
0.687988 0.559241 0.000000
0.723201 0.559241 0.000000
0.758955 0.555647 0.000000
0.795144 0.555647 0.000000
0.831684 0.555647 0.000000
0.868507 0.555647 0.000000
0.903545 0.555647 0.000000
0.940870 0.555647 0.000000
0.976496 0.555647 0.000000
1.000000 0.555647 0.000000
1.000000 0.555647 0.000000
1.000000 0.555647 0.000000
1.000000 0.555647 0.000000
1.000000 0.555647 0.000000
1.000000 0.555647 0.000000
0.000000 0.576811 0.000000
0.000000 0.576811 0.000000
0.000000 0.576811 0.000000
0.080560 0.576811 0.000000
0.132737 0.576811 0.000000
0.167429 0.576811 0.000000
0.218708 0.576811 0.000000
0.258497 0.576811 0.000000
0.299707 0.576811 0.000000
0.341576 0.576811 0.000000
0.383716 0.576811 0.000000
0.425921 0.576811 0.000000
0.468078 0.576811 0.000000
0.506108 0.576811 0.000000
0.548374 0.576811 0.000000
0.613363 0.603657 0.000000
0.650467 0.600380 0.000000
0.687988 0.600380 0.000000
0.723201 0.597081 0.000000
0.758955 0.597081 0.000000
0.795144 0.597081 0.000000
0.831684 0.593760 0.000000
0.868507 0.593760 0.000000
0.903545 0.593760 0.000000
0.940870 0.593760 0.000000
0.976496 0.593760 0.000000
1.000000 0.593760 0.000000
1.000000 0.593760 0.000000
1.000000 0.593760 0.000000
1.000000 0.593760 0.000000
1.000000 0.593760 0.000000
1.000000 0.593760 0.000000
0.000000 0.613363 0.000000
0.000000 0.613363 0.000000
0.000000 0.613363 0.000000
0.080560 0.613363 0.000000
0.132737 0.613363 0.000000
0.167429 0.613363 0.000000
0.207307 0.613363 0.000000
0.249261 0.613363 0.000000
0.292020 0.613363 0.000000
0.335031 0.613363 0.000000
0.378039 0.613363 0.000000
0.420922 0.613363 0.000000
0.459110 0.613363 0.000000
0.502052 0.613363 0.000000
0.540983 0.613363 0.000000
0.583662 0.613363 0.000000
0.650467 0.641432 0.000000
0.687988 0.641432 0.000000
0.723201 0.638386 0.000000
0.758955 0.638386 0.000000
0.795144 0.635323 0.000000
0.831684 0.635323 0.000000
0.868507 0.635323 0.000000
0.903545 0.635323 0.000000
0.940870 0.632242 0.000000
0.976496 0.632242 0.000000
1.000000 0.632242 0.000000
1.000000 0.632242 0.000000
1.000000 0.632242 0.000000
1.000000 0.632242 0.000000
1.000000 0.632242 0.000000
1.000000 0.632242 0.000000
0.000000 0.650467 0.000000
0.000000 0.650467 0.000000
0.000000 0.650467 0.000000
0.080560 0.650467 0.000000
0.110395 0.650467 0.000000
0.167429 0.650467 0.000000
0.207307 0.650467 0.000000
0.249261 0.650467 0.000000
0.292020 0.650467 0.000000
0.328330 0.650467 0.000000
0.372258 0.650467 0.000000
0.415850 0.650467 0.000000
0.454547 0.650467 0.000000
0.493821 0.650467 0.000000
0.537242 0.650467 0.000000
0.576811 0.650467 0.000000
0.619733 0.650467 0.000000
0.687988 0.679549 0.000000
0.723201 0.679549 0.000000
0.758955 0.676709 0.000000
0.795144 0.676709 0.000000
0.831684 0.673853 0.000000
0.868507 0.673853 0.000000
0.903545 0.673853 0.000000
0.940870 0.673853 0.000000
0.976496 0.673853 0.000000
1.000000 0.673853 0.000000
1.000000 0.673853 0.000000
1.000000 0.673853 0.000000
1.000000 0.673853 0.000000
1.000000 0.673853 0.000000
1.000000 0.673853 0.000000
0.000000 0.687988 0.000000
0.000000 0.687988 0.000000
0.000000 0.687988 0.000000
0.080560 0.687988 0.000000
0.110395 0.687988 0.000000
0.167429 0.687988 0.000000
0.207307 0.687988 0.000000
0.239595 0.687988 0.000000
0.284083 0.687988 0.000000
0.328330 0.687988 0.000000
0.366368 0.687988 0.000000
0.410703 0.687988 0.000000
0.449927 0.687988 0.000000
0.489643 0.687988 0.000000
0.529664 0.687988 0.000000
0.569861 0.687988 0.000000
0.613363 0.687988 0.000000
0.653445 0.687988 0.000000
0.723201 0.717918 0.000000
0.758955 0.717918 0.000000
0.795144 0.715259 0.000000
0.831684 0.715259 0.000000
0.868507 0.712588 0.000000
0.903545 0.712588 0.000000
0.940870 0.712588 0.000000
0.976496 0.712588 0.000000
1.000000 0.712588 0.000000
1.000000 0.712588 0.000000
1.000000 0.712588 0.000000
1.000000 0.712588 0.000000
1.000000 0.712588 0.000000
1.000000 0.712588 0.000000
0.000000 0.723201 0.000000
0.000000 0.723201 0.000000
0.000000 0.723201 0.000000
0.080560 0.723201 0.000000
0.110395 0.723201 0.000000
0.151280 0.723201 0.000000
0.195098 0.723201 0.000000
0.239595 0.723201 0.000000
0.284083 0.723201 0.000000
0.321460 0.723201 0.000000
0.360361 0.723201 0.000000
0.405478 0.723201 0.000000
0.445250 0.723201 0.000000
0.485422 0.723201 0.000000
0.525825 0.723201 0.000000
0.566348 0.723201 0.000000
0.606913 0.723201 0.000000
0.647472 0.723201 0.000000
0.687988 0.723201 0.000000
0.758955 0.756468 0.000000
0.795144 0.756468 0.000000
0.831684 0.753971 0.000000
0.868507 0.753971 0.000000
0.903545 0.751465 0.000000
0.940870 0.751465 0.000000
0.976496 0.751465 0.000000
1.000000 0.751465 0.000000
1.000000 0.751465 0.000000
1.000000 0.751465 0.000000
1.000000 0.751465 0.000000
1.000000 0.751465 0.000000
1.000000 0.751465 0.000000
0.000000 0.758955 0.000000
0.000000 0.758955 0.000000
0.000000 0.758955 0.000000
0.080560 0.758955 0.000000
0.110395 0.758955 0.000000
0.151280 0.758955 0.000000
0.195098 0.758955 0.000000
0.239595 0.758955 0.000000
0.275870 0.758955 0.000000
0.321460 0.758955 0.000000
0.360361 0.758955 0.000000
0.400170 0.758955 0.000000
0.440513 0.758955 0.000000
0.481156 0.758955 0.000000
0.521953 0.758955 0.000000
0.559241 0.758955 0.000000
0.600380 0.758955 0.000000
0.641432 0.758955 0.000000
0.682376 0.758955 0.000000
0.720565 0.758955 0.000000
0.795144 0.795144 0.000000
0.831684 0.792793 0.000000
0.868507 0.792793 0.000000
0.903545 0.790433 0.000000
0.940870 0.790433 0.000000
0.976496 0.790433 0.000000
1.000000 0.790433 0.000000
1.000000 0.790433 0.000000
1.000000 0.790433 0.000000
1.000000 0.790433 0.000000
1.000000 0.790433 0.000000
1.000000 0.790433 0.000000
0.000000 0.795144 0.000000
0.000000 0.795144 0.000000
0.000000 0.795144 0.000000
0.000000 0.795144 0.000000
0.110395 0.795144 0.000000
0.151280 0.795144 0.000000
0.195098 0.795144 0.000000
0.229437 0.795144 0.000000
0.275870 0.795144 0.000000
0.314409 0.795144 0.000000
0.354232 0.795144 0.000000
0.394777 0.795144 0.000000
0.435714 0.795144 0.000000
0.476845 0.795144 0.000000
0.514104 0.795144 0.000000
0.555647 0.795144 0.000000
0.597081 0.795144 0.000000
0.635323 0.795144 0.000000
0.676709 0.795144 0.000000
0.715259 0.795144 0.000000
0.756468 0.795144 0.000000
0.829457 0.831684 0.000000
0.868507 0.831684 0.000000
0.903545 0.831684 0.000000
0.940870 0.829457 0.000000
0.976496 0.829457 0.000000
1.000000 0.829457 0.000000
1.000000 0.829457 0.000000
1.000000 0.829457 0.000000
1.000000 0.829457 0.000000
1.000000 0.829457 0.000000
1.000000 0.829457 0.000000
0.000000 0.831684 0.000000
0.000000 0.831684 0.000000
0.000000 0.831684 0.000000
0.000000 0.831684 0.000000
0.110395 0.831684 0.000000
0.151280 0.831684 0.000000
0.195098 0.831684 0.000000
0.229437 0.831684 0.000000
0.267353 0.831684 0.000000
0.314409 0.831684 0.000000
0.354232 0.831684 0.000000
0.389294 0.831684 0.000000
0.430851 0.831684 0.000000
0.472486 0.831684 0.000000
0.510125 0.831684 0.000000
0.552025 0.831684 0.000000
0.590417 0.831684 0.000000
0.632242 0.831684 0.000000
0.670983 0.831684 0.000000
0.709905 0.831684 0.000000
0.748948 0.831684 0.000000
0.790433 0.831684 0.000000
0.864273 0.868507 0.000000
0.903545 0.870615 0.000000
0.940870 0.868507 0.000000
0.976496 0.868507 0.000000
1.000000 0.868507 0.000000
1.000000 0.868507 0.000000
1.000000 0.868507 0.000000
1.000000 0.868507 0.000000
1.000000 0.868507 0.000000
1.000000 0.868507 0.000000
0.000000 0.868507 0.000000
0.000000 0.868507 0.000000
0.000000 0.868507 0.000000
0.000000 0.868507 0.000000
0.110395 0.868507 0.000000
0.151280 0.868507 0.000000
0.181896 0.868507 0.000000
0.229437 0.868507 0.000000
0.267353 0.868507 0.000000
0.307164 0.868507 0.000000
0.347973 0.868507 0.000000
0.389294 0.868507 0.000000
0.425921 0.868507 0.000000
0.468078 0.868507 0.000000
0.506108 0.868507 0.000000
0.548374 0.868507 0.000000
0.587051 0.868507 0.000000
0.626025 0.868507 0.000000
0.665199 0.868507 0.000000
0.704503 0.868507 0.000000
0.743884 0.868507 0.000000
0.785689 0.868507 0.000000
0.824981 0.868507 0.000000
0.897481 0.903545 0.000000
0.940870 0.909561 0.000000
0.976496 0.907561 0.000000
1.000000 0.907561 0.000000
1.000000 0.907561 0.000000
1.000000 0.907561 0.000000
1.000000 0.907561 0.000000
1.000000 0.907561 0.000000
1.000000 0.907561 0.000000
0.000000 0.903545 0.000000
0.000000 0.903545 0.000000
0.000000 0.903545 0.000000
0.000000 0.903545 0.000000
0.110395 0.903545 0.000000
0.151280 0.903545 0.000000
0.181896 0.903545 0.000000
0.229437 0.903545 0.000000
0.267353 0.903545 0.000000
0.307164 0.903545 0.000000
0.347973 0.903545 0.000000
0.383716 0.903545 0.000000
0.425921 0.903545 0.000000
0.463620 0.903545 0.000000
0.502052 0.903545 0.000000
0.544693 0.903545 0.000000
0.583662 0.903545 0.000000
0.622888 0.903545 0.000000
0.662284 0.903545 0.000000
0.701783 0.903545 0.000000
0.741337 0.903545 0.000000
0.780910 0.903545 0.000000
0.818211 0.903545 0.000000
0.857874 0.903545 0.000000
0.931221 0.940870 0.000000
0.976496 0.946602 0.000000
1.000000 0.946602 0.000000
1.000000 0.946602 0.000000
1.000000 0.946602 0.000000
1.000000 0.946602 0.000000
1.000000 0.946602 0.000000
1.000000 0.946602 0.000000
0.000000 0.940870 0.000000
0.000000 0.940870 0.000000
0.000000 0.940870 0.000000
0.000000 0.940870 0.000000
0.080560 0.940870 0.000000
0.132737 0.940870 0.000000
0.181896 0.940870 0.000000
0.218708 0.940870 0.000000
0.258497 0.940870 0.000000
0.299707 0.940870 0.000000
0.341576 0.940870 0.000000
0.383716 0.940870 0.000000
0.420922 0.940870 0.000000
0.459110 0.940870 0.000000
0.497957 0.940870 0.000000
0.540983 0.940870 0.000000
0.580248 0.940870 0.000000
0.616558 0.940870 0.000000
0.656407 0.940870 0.000000
0.696304 0.940870 0.000000
0.736210 0.940870 0.000000
0.776095 0.940870 0.000000
0.813660 0.940870 0.000000
0.853576 0.940870 0.000000
0.893411 0.940870 0.000000
0.967273 0.976496 0.000000
1.000000 0.985616 0.000000
1.000000 0.985616 0.000000
1.000000 0.985616 0.000000
1.000000 0.985616 0.000000
1.000000 0.985616 0.000000
1.000000 0.985616 0.000000
0.000000 0.976496 0.000000
0.000000 0.976496 0.000000
0.000000 0.976496 0.000000
0.000000 0.976496 0.000000
0.080560 0.976496 0.000000
0.132737 0.976496 0.000000
0.181896 0.976496 0.000000
0.218708 0.976496 0.000000
0.258497 0.976496 0.000000
0.299707 0.976496 0.000000
0.341576 0.976496 0.000000
0.378039 0.976496 0.000000
0.415850 0.976496 0.000000
0.459110 0.976496 0.000000
0.497957 0.976496 0.000000
0.537242 0.976496 0.000000
0.573349 0.976496 0.000000
0.613363 0.976496 0.000000
0.653445 0.976496 0.000000
0.693545 0.976496 0.000000
0.731040 0.976496 0.000000
0.771244 0.976496 0.000000
0.809079 0.976496 0.000000
0.849251 0.976496 0.000000
0.887264 0.976496 0.000000
0.927328 0.976496 0.000000
0.978328 1.000000 0.000000
0.978328 1.000000 0.000000
0.978328 1.000000 0.000000
0.978328 1.000000 0.000000
0.978328 1.000000 0.000000
0.978328 1.000000 0.000000
0.000000 1.000000 0.000000
0.000000 1.000000 0.000000
0.000000 1.000000 0.000000
0.000000 1.000000 0.000000
0.080560 1.000000 0.000000
0.132737 1.000000 0.000000
0.181896 1.000000 0.000000
0.218708 1.000000 0.000000
0.258497 1.000000 0.000000
0.299707 1.000000 0.000000
0.335031 1.000000 0.000000
0.378039 1.000000 0.000000
0.415850 1.000000 0.000000
0.454547 1.000000 0.000000
0.493821 1.000000 0.000000
0.533469 1.000000 0.000000
0.573349 1.000000 0.000000
0.610149 1.000000 0.000000
0.650467 1.000000 0.000000
0.690773 1.000000 0.000000
0.728438 1.000000 0.000000
0.768805 1.000000 0.000000
0.806776 1.000000 0.000000
0.844901 1.000000 0.000000
0.885203 1.000000 0.000000
0.923415 1.000000 0.000000
0.950401 1.000000 0.000000
0.950401 1.000000 0.000000
0.950401 1.000000 0.000000
0.950401 1.000000 0.000000
0.950401 1.000000 0.000000
0.950401 1.000000 0.000000
0.000000 1.000000 0.000000
0.000000 1.000000 0.000000
0.000000 1.000000 0.000000
0.000000 1.000000 0.000000
0.080560 1.000000 0.000000
0.132737 1.000000 0.000000
0.181896 1.000000 0.000000
0.218708 1.000000 0.000000
0.258497 1.000000 0.000000
0.299707 1.000000 0.000000
0.335031 1.000000 0.000000
0.378039 1.000000 0.000000
0.415850 1.000000 0.000000
0.454547 1.000000 0.000000
0.493821 1.000000 0.000000
0.533469 1.000000 0.000000
0.573349 1.000000 0.000000
0.610149 1.000000 0.000000
0.650467 1.000000 0.000000
0.690773 1.000000 0.000000
0.728438 1.000000 0.000000
