assets/lut/punchy.cube
TITLE "Exported LUT"
LUT_3D_SIZE 5
DOMAIN_MIN 0.000000 0.000000 0.000000
DOMAIN_MAX 0.903226 0.903226 0.903226
0.000000 0.000000 0.000000
0.321460 0.000000 0.000000
0.576811 0.000000 0.000000
0.831684 0.000000 0.000000
1.000000 0.000000 0.000000
0.000000 0.321460 0.000000
0.307164 0.321460 0.000000
0.576811 0.314409 0.000000
0.831684 0.314409 0.000000
1.000000 0.321460 0.000000
0.000000 0.576811 0.000000
0.258497 0.576811 0.000000
0.548374 0.576811 0.000000
0.831684 0.593760 0.000000
1.000000 0.593760 0.000000
0.000000 0.831684 0.000000
0.229437 0.831684 0.000000
0.510125 0.831684 0.000000
0.790433 0.831684 0.000000
1.000000 0.868507 0.000000
0.000000 1.000000 0.000000
0.218708 1.000000 0.000000
0.493821 1.000000 0.000000
0.768805 1.000000 0.000000
0.950401 1.000000 0.000000
0.000000 0.000000 0.321460
0.321460 0.000000 0.307164
0.576811 0.000000 0.258497
0.831684 0.000000 0.229437
1.000000 0.000000 0.218708
0.000000 0.307164 0.321460
0.321460 0.314409 0.314409
0.576811 0.284083 0.267353
0.831684 0.249261 0.218708
1.000000 0.229437 0.195098
0.000000 0.576811 0.314409
0.267353 0.576811 0.284083
0.562808 0.576811 0.267353
0.831684 0.559241 0.218708
1.000000 0.537242 0.195098
0.000000 0.831684 0.314409
0.218708 0.831684 0.249261
0.497957 0.831684 0.218708
0.802148 0.831684 0.218708
1.000000 0.838324 0.195098
0.000000 1.000000 0.321460
0.195098 1.000000 0.229437
0.454547 1.000000 0.195098
0.758955 1.000000 0.195098
0.959818 1.000000 0.195098
0.000000 0.000000 0.576811
0.314409 0.000000 0.576811
0.576811 0.000000 0.548374
0.831684 0.000000 0.510125
1.000000 0.000000 0.493821
0.000000 0.258497 0.576811
0.284083 0.267353 0.576811
0.576811 0.267353 0.562808
0.831684 0.218708 0.497957
1.000000 0.195098 0.454547
0.000000 0.548374 0.576811
0.267353 0.562808 0.576811
0.576811 0.555647 0.555647
0.831684 0.525825 0.510125
1.000000 0.506108 0.481156
0.000000 0.831684 0.593760
0.218708 0.831684 0.559241
0.510125 0.831684 0.525825
0.815939 0.831684 0.510125
1.000000 0.818211 0.481156
0.000000 1.000000 0.593760
0.195098 1.000000 0.537242
0.481156 1.000000 0.506108
0.766357 1.000000 0.481156
0.974660 1.000000 0.481156
0.000000 0.000000 0.831684
0.314409 0.000000 0.831684
0.593760 0.000000 0.831684
0.831684 0.000000 0.790433
1.000000 0.000000 0.768805
0.000000 0.229437 0.831684
0.249261 0.218708 0.831684
0.559241 0.218708 0.831684
0.831684 0.218708 0.802148
1.000000 0.195098 0.758955
0.000000 0.510125 0.831684
0.218708 0.497957 0.831684
0.525825 0.510125 0.831684
0.831684 0.510125 0.815939
1.000000 0.481156 0.766357
0.000000 0.790433 0.831684
0.218708 0.802148 0.831684
0.510125 0.815939 0.831684
0.831684 0.797487 0.797487
1.000000 0.780910 0.768805
0.000000 1.000000 0.868507
0.195098 1.000000 0.838324
0.481156 1.000000 0.818211
0.768805 1.000000 0.780910
0.989235 1.000000 0.768805
0.000000 0.000000 1.000000
0.321460 0.000000 1.000000
0.593760 0.000000 1.000000
0.868507 0.000000 1.000000
1.000000 0.000000 0.950401
0.000000 0.218708 1.000000
0.229437 0.195098 1.000000
0.537242 0.195098 1.000000
0.838324 0.195098 1.000000
1.000000 0.195098 0.959818
0.000000 0.493821 1.000000
0.195098 0.454547 1.000000
0.506108 0.481156 1.000000
0.818211 0.481156 1.000000
1.000000 0.481156 0.974660
0.000000 0.768805 1.000000
0.195098 0.758955 1.000000
0.481156 0.766357 1.000000
0.780910 0.768805 1.000000
1.000000 0.768805 0.989235
0.000000 0.950401 1.000000
0.195098 0.959818 1.000000
0.481156 0.974660 1.000000
0.768805 0.989235 1.000000
1.000000 0.961688 0.961688
